; generated by PrusaSlicer 2.7.2 on 2026-04-24 at 23:20:04 UTC

; 

; external perimeters extrusion width = 0.45mm
; perimeters extrusion width = 0.45mm
; infill extrusion width = 0.45mm
; solid infill extrusion width = 0.45mm
; top infill extrusion width = 0.40mm
; support material extrusion width = 0.40mm
; first layer extrusion width = 0.40mm

M190 S60 ; set bed temperature and wait for it to be reached
M104 S215 ; set temperature
;TYPE:Custom
M201 X1000 Y1000 Z200 E5000
M862.3 P"MK3S"
G28
G1 Z5 F5000
M109 S215 ; set temperature and wait for it to be reached
G21 ; set units to millimeters
G90 ; use absolute coordinates
M82 ; use absolute distances for extrusion
G92 E0
; Filament gcode
M107
;LAYER_CHANGE
;Z:0.2
;HEIGHT:0.2
G1 E-2 F2400
G1 Z.2 F7800
G1 X109.484 Y92.445
G1 E0 F2400
;TYPE:Skirt/Brim
;WIDTH:0.4
G1 F1800
G1 X112.445 Y89.484 E.12433
G1 X114.155 Y88.334 E.18552
G1 X116.233 Y87.915 E.24846
G1 X133.767 Y87.915 E.76907
G1 X135.789 Y88.311 E.83025
G1 X137.555 Y89.484 E.8932
G1 X140.516 Y92.445 E1.01753
G1 X141.666 Y94.155 E1.07872
G1 X142.085 Y96.233 E1.14166
G1 X142.085 Y113.767 E1.66227
G1 X141.689 Y115.789 E1.72345
G1 X140.516 Y117.555 E1.7864
G1 X137.555 Y120.516 E1.91073
G1 X135.845 Y121.666 E1.97192
G1 X133.767 Y122.085 E2.03486
G1 X116.233 Y122.085 E2.55547
G1 X114.211 Y121.689 E2.61665
G1 X112.445 Y120.516 E2.6796
G1 X109.484 Y117.555 E2.80393
G1 X108.334 Y115.845 E2.86512
G1 X107.915 Y113.767 E2.92806
G1 X107.915 Y96.233 E3.44867
G1 X108.311 Y94.211 E3.50985
G1 X109.45 Y92.495 E3.571
G1 E1.571 F2400
G92 E0
G1 X109.45 Y92.495 F7800
G1 X121.229 Y102.072
G1 E2 F2400
G1 F1800
G1 X121.872 Y101.393 E2.02777
G1 X122.637 Y100.852 E2.05559
G1 X123.493 Y100.47 E2.08342
G1 X124.411 Y100.262 E2.11137
G1 X125.35 Y100.239 E2.13926
G1 X126.263 Y100.396 E2.16677
G1 X127.136 Y100.73 E2.19452
G1 X127.928 Y101.229 E2.22231
G1 X128.607 Y101.872 E2.25008
G1 X129.148 Y102.636 E2.27788
G1 X129.529 Y103.491 E2.30567
G1 X129.737 Y104.403 E2.33344
G1 X129.762 Y105.339 E2.36124
G1 X129.604 Y106.261 E2.38901
G1 X129.27 Y107.136 E2.41682
G1 X128.771 Y107.928 E2.44461
G1 X128.128 Y108.607 E2.47238
G1 X127.364 Y109.148 E2.50018
G1 X126.509 Y109.529 E2.52797
G1 X125.597 Y109.737 E2.55574
G1 X124.661 Y109.762 E2.58354
G1 X123.738 Y109.604 E2.61134
G1 X122.864 Y109.27 E2.63912
G1 X122.072 Y108.771 E2.66691
G1 X121.393 Y108.128 E2.69468
G1 X120.852 Y107.364 E2.72248
G1 X120.471 Y106.509 E2.75027
G1 X120.263 Y105.597 E2.77804
G1 X120.238 Y104.661 E2.80584
G1 X120.396 Y103.738 E2.83364
G1 X120.73 Y102.864 E2.86142
G1 X121.197 Y102.123 E2.88743
G1 X121.197 Y102.123 F7800
G1 X121.497 Y102.311
G1 F1800
G1 X121.501 Y102.304 E2.88767
G1 X122.095 Y101.673 E2.9134
G1 X122.8 Y101.17 E2.93911
G1 X123.591 Y100.814 E2.96486
G1 X124.44 Y100.619 E2.99072
G1 X125.308 Y100.594 E3.0165
G1 X126.153 Y100.736 E3.04194
G1 X126.962 Y101.043 E3.06763
G1 X127.696 Y101.501 E3.09332
G1 X128.327 Y102.095 E3.11905
G1 X128.83 Y102.799 E3.14474
G1 X129.186 Y103.589 E3.17047
G1 X129.38 Y104.433 E3.19618
G1 X129.407 Y105.298 E3.22188
G1 X129.264 Y106.152 E3.24759
G1 X128.957 Y106.962 E3.27331
G1 X128.499 Y107.696 E3.299
G1 X127.905 Y108.327 E3.32473
G1 X127.201 Y108.83 E3.35042
G1 X126.411 Y109.186 E3.37615
G1 X125.567 Y109.38 E3.40186
G1 X124.702 Y109.407 E3.42756
G1 X123.848 Y109.264 E3.45327
G1 X123.038 Y108.957 E3.47899
G1 X122.304 Y108.499 E3.50468
G1 X121.673 Y107.905 E3.53041
G1 X121.17 Y107.201 E3.5561
G1 X120.814 Y106.411 E3.58183
G1 X120.62 Y105.567 E3.60754
G1 X120.593 Y104.702 E3.63324
G1 X120.736 Y103.848 E3.65895
G1 X121.043 Y103.038 E3.68467
G1 X121.465 Y102.362 E3.70833
G1 X121.465 Y102.362 F7800
G1 X121.766 Y102.548
G1 F1800
G1 X121.775 Y102.534 E3.70882
G1 X122.318 Y101.952 E3.73245
G1 X122.964 Y101.487 E3.75608
G1 X123.69 Y101.157 E3.77976
G1 X124.469 Y100.975 E3.80351
G1 X125.268 Y100.949 E3.82725
G1 X126.045 Y101.077 E3.85063
G1 X126.789 Y101.356 E3.87422
G1 X127.466 Y101.775 E3.89786
G1 X128.048 Y102.318 E3.92149
G1 X128.512 Y102.964 E3.94511
G1 X128.842 Y103.688 E3.96873
G1 X129.024 Y104.463 E3.99237
G1 X129.052 Y105.258 E4.01599
G1 X128.923 Y106.044 E4.03964
G1 X128.644 Y106.789 E4.06326
G1 X128.225 Y107.466 E4.0869
G1 X127.682 Y108.048 E4.11053
G1 X127.036 Y108.512 E4.13415
G1 X126.312 Y108.842 E4.15777
G1 X125.537 Y109.024 E4.18141
G1 X124.742 Y109.052 E4.20503
G1 X123.956 Y108.923 E4.22868
G1 X123.211 Y108.644 E4.2523
G1 X122.534 Y108.225 E4.27594
G1 X121.952 Y107.682 E4.29957
G1 X121.488 Y107.036 E4.32319
G1 X121.158 Y106.312 E4.34681
G1 X120.976 Y105.537 E4.37045
G1 X120.948 Y104.742 E4.39407
G1 X121.077 Y103.956 E4.41772
G1 X121.356 Y103.211 E4.44134
G1 X121.735 Y102.599 E4.46271
G1 X121.735 Y102.599 F7800
G1 X122.036 Y102.784
G1 F1800
G1 X122.049 Y102.763 E4.46344
G1 X122.542 Y102.231 E4.48498
G1 X123.13 Y101.804 E4.50656
G1 X123.791 Y101.5 E4.52816
G1 X124.501 Y101.331 E4.54983
G1 X125.23 Y101.304 E4.57149
G1 X125.938 Y101.418 E4.59278
G1 X126.618 Y101.67 E4.61431
G1 X127.237 Y102.049 E4.63586
G1 X127.769 Y102.542 E4.6574
G1 X128.196 Y103.13 E4.67898
G1 X128.499 Y103.789 E4.70052
G1 X128.668 Y104.495 E4.72207
G1 X128.696 Y105.22 E4.74361
G1 X128.582 Y105.937 E4.76517
G1 X128.33 Y106.618 E4.78673
G1 X127.951 Y107.237 E4.80828
G1 X127.458 Y107.769 E4.82982
G1 X126.87 Y108.196 E4.8514
G1 X126.211 Y108.499 E4.87294
G1 X125.505 Y108.668 E4.89449
G1 X124.78 Y108.696 E4.91603
G1 X124.063 Y108.582 E4.93759
G1 X123.382 Y108.33 E4.95915
G1 X122.763 Y107.951 E4.9807
G1 X122.231 Y107.458 E5.00224
G1 X121.804 Y106.87 E5.02382
G1 X121.501 Y106.211 E5.04536
G1 X121.332 Y105.505 E5.06691
G1 X121.304 Y104.78 E5.08845
G1 X121.418 Y104.063 E5.11001
G1 X121.67 Y103.382 E5.13157
G1 X122.005 Y102.835 E5.15061
G1 X122.005 Y102.835 F7800
G1 X122.308 Y103.019
G1 F1800
G1 X122.325 Y102.991 E5.15158
G1 X122.768 Y102.508 E5.17104
G1 X123.297 Y102.12 E5.19052
G1 X123.893 Y101.843 E5.21003
G1 X124.534 Y101.687 E5.22962
G1 X125.193 Y101.66 E5.2492
G1 X125.833 Y101.76 E5.26843
G1 X126.448 Y101.984 E5.28786
G1 X127.009 Y102.325 E5.30735
G1 X127.492 Y102.768 E5.32681
G1 X127.88 Y103.297 E5.34629
G1 X128.157 Y103.892 E5.36578
G1 X128.312 Y104.529 E5.38525
G1 X128.341 Y105.184 E5.40472
G1 X128.24 Y105.832 E5.42419
G1 X128.016 Y106.448 E5.44365
G1 X127.675 Y107.009 E5.46314
G1 X127.232 Y107.492 E5.4826
G1 X126.703 Y107.88 E5.50208
G1 X126.108 Y108.157 E5.52157
G1 X125.471 Y108.312 E5.54104
G1 X124.816 Y108.341 E5.56051
G1 X124.168 Y108.24 E5.57998
G1 X123.552 Y108.016 E5.59944
G1 X122.991 Y107.675 E5.61893
G1 X122.508 Y107.232 E5.63839
G1 X122.12 Y106.703 E5.65787
G1 X121.843 Y106.108 E5.67736
G1 X121.688 Y105.471 E5.69683
G1 X121.659 Y104.816 E5.7163
G1 X121.76 Y104.168 E5.73577
G1 X121.984 Y103.552 E5.75523
G1 X122.276 Y103.071 E5.77194
G1 X122.276 Y103.071 F7800
G1 X122.58 Y103.253
G1 F1800
G1 X122.601 Y103.217 E5.77318
G1 X122.995 Y102.784 E5.79056
G1 X123.466 Y102.435 E5.80797
G1 X123.997 Y102.185 E5.8254
G1 X124.569 Y102.043 E5.8429
G1 X125.158 Y102.016 E5.86041
G1 X125.73 Y102.102 E5.87758
G1 X126.28 Y102.3 E5.89494
G1 X126.783 Y102.601 E5.91234
G1 X127.216 Y102.995 E5.92972
G1 X127.565 Y103.466 E5.94713
G1 X127.815 Y103.996 E5.96453
G1 X127.957 Y104.564 E5.98191
G1 X127.985 Y105.15 E5.99933
G1 X127.898 Y105.729 E6.01671
G1 X127.7 Y106.28 E6.03409
G1 X127.399 Y106.783 E6.05149
G1 X127.005 Y107.216 E6.06887
G1 X126.534 Y107.565 E6.08628
G1 X126.004 Y107.815 E6.10368
G1 X125.436 Y107.957 E6.12106
G1 X124.85 Y107.985 E6.13848
G1 X124.271 Y107.898 E6.15586
G1 X123.72 Y107.7 E6.17324
G1 X123.217 Y107.399 E6.19064
G1 X122.784 Y107.005 E6.20802
G1 X122.435 Y106.534 E6.22543
G1 X122.185 Y106.004 E6.24283
G1 X122.043 Y105.436 E6.26021
G1 X122.015 Y104.85 E6.27763
G1 X122.102 Y104.271 E6.29501
G1 X122.3 Y103.72 E6.31239
G1 X122.549 Y103.304 E6.32679
G1 X122.549 Y103.304 F7800
G1 X122.854 Y103.485
G1 F1800
G1 X122.879 Y103.442 E6.32827
G1 X123.224 Y103.058 E6.3436
G1 X123.637 Y102.749 E6.35891
G1 X124.103 Y102.526 E6.37425
G1 X124.606 Y102.398 E6.38966
G1 X125.125 Y102.372 E6.40509
G1 X125.628 Y102.445 E6.42018
G1 X126.114 Y102.616 E6.43548
G1 X126.558 Y102.879 E6.4508
G1 X126.942 Y103.224 E6.46613
G1 X127.251 Y103.637 E6.48144
G1 X127.474 Y104.102 E6.49675
G1 X127.601 Y104.602 E6.51207
G1 X127.629 Y105.117 E6.52738
G1 X127.555 Y105.628 E6.54271
G1 X127.384 Y106.114 E6.55801
G1 X127.121 Y106.558 E6.57333
G1 X126.776 Y106.942 E6.58866
G1 X126.363 Y107.251 E6.60397
G1 X125.898 Y107.474 E6.61928
G1 X125.398 Y107.601 E6.6346
G1 X124.883 Y107.629 E6.64991
G1 X124.372 Y107.555 E6.66524
G1 X123.886 Y107.384 E6.68054
G1 X123.442 Y107.121 E6.69586
G1 X123.058 Y106.776 E6.71119
G1 X122.749 Y106.363 E6.7265
G1 X122.526 Y105.898 E6.74181
G1 X122.399 Y105.398 E6.75713
G1 X122.371 Y104.883 E6.77244
G1 X122.445 Y104.372 E6.78777
G1 X122.616 Y103.886 E6.80307
G1 X122.823 Y103.537 E6.81512
G1 X122.823 Y103.537 F7800
G1 X123.14 Y103.766
G1 F1800
G1 X123.455 Y103.331 E6.83107
G1 X124.211 Y102.867 E6.85741
G1 X125.094 Y102.728 E6.88395
G1 X125.95 Y102.934 E6.91009
G1 X126.669 Y103.455 E6.93645
G1 X127.133 Y104.211 E6.96279
G1 X127.273 Y105.087 E6.98913
G1 X127.066 Y105.95 E7.01548
G1 X126.545 Y106.669 E7.04184
G1 X125.789 Y107.133 E7.06818
G1 X124.913 Y107.273 E7.09452
G1 X124.05 Y107.066 E7.12087
G1 X123.331 Y106.545 E7.14723
G1 X122.867 Y105.789 E7.17357
G1 X122.727 Y104.913 E7.19991
G1 X122.934 Y104.05 E7.22626
G1 X123.104 Y103.815 E7.23487
G1 X123.104 Y103.815 F7800
G1 X123.41 Y103.952
G1 F1800
G1 X123.44 Y103.886 E7.23702
G1 X123.985 Y103.374 E7.25922
G1 X124.687 Y103.109 E7.2815
G1 X125.433 Y103.132 E7.30366
G1 X126.114 Y103.44 E7.32585
G1 X126.626 Y103.985 E7.34805
G1 X126.891 Y104.685 E7.37027
G1 X126.868 Y105.432 E7.39246
G1 X126.56 Y106.114 E7.41468
G1 X126.015 Y106.626 E7.43688
G1 X125.315 Y106.891 E7.4591
G1 X124.568 Y106.868 E7.48129
G1 X123.886 Y106.56 E7.50351
G1 X123.374 Y106.015 E7.52571
G1 X123.109 Y105.315 E7.54793
G1 X123.132 Y104.568 E7.57012
G1 X123.385 Y104.007 E7.58839
G1 X123.385 Y104.007 F7800
G1 X123.682 Y104.215
G1 F1800
G1 X123.922 Y103.872 E7.60082
G1 X124.436 Y103.546 E7.61889
G1 X125.041 Y103.441 E7.63712
G1 X125.63 Y103.573 E7.65504
G1 X126.128 Y103.922 E7.6731
G1 X126.454 Y104.436 E7.69117
G1 X126.56 Y105.036 E7.70926
G1 X126.427 Y105.63 E7.72733
G1 X126.078 Y106.128 E7.74539
G1 X125.564 Y106.454 E7.76346
G1 X124.964 Y106.56 E7.78155
G1 X124.37 Y106.427 E7.79962
G1 X123.872 Y106.078 E7.81768
G1 X123.546 Y105.564 E7.83575
G1 X123.44 Y104.964 E7.85384
G1 X123.573 Y104.37 E7.87191
G1 X123.647 Y104.264 E7.87575
G1 X123.647 Y104.264 F7800
G1 X123.972 Y104.404
G1 F1800
G1 X124.008 Y104.319 E7.87849
G1 X124.345 Y103.992 E7.89243
G1 X124.781 Y103.817 E7.90638
G1 X125.25 Y103.823 E7.92031
G1 X125.681 Y104.008 E7.93424
G1 X126.008 Y104.345 E7.94818
G1 X126.183 Y104.78 E7.9621
G1 X126.177 Y105.25 E7.97606
G1 X125.992 Y105.681 E7.98999
G1 X125.655 Y106.008 E8.00393
G1 X125.22 Y106.183 E8.01785
G1 X124.75 Y106.177 E8.03181
G1 X124.319 Y105.992 E8.04574
G1 X123.992 Y105.655 E8.05968
G1 X123.817 Y105.22 E8.0736
G1 X123.823 Y104.75 E8.08756
G1 X123.949 Y104.459 E8.09698
G1 E6.09698 F2400
G92 E0
G1 X123.949 Y104.459 F7800
G1 X133.693 Y96.307
G1 E2 F2400
;TYPE:Support material
G1 F1800
G1 X136.55 Y96.307 E2.08483
G1 X136.55 Y113.693 E2.60104
G1 X133.693 Y113.693 E2.68587
G1 X133.693 Y116.55 E2.7707
G1 X116.307 Y116.55 E3.28691
G1 X116.307 Y113.693 E3.37174
G1 X113.45 Y113.693 E3.45657
G1 X113.45 Y96.307 E3.97278
G1 X116.307 Y96.307 E4.05761
G1 X116.307 Y93.45 E4.14244
G1 X133.693 Y93.45 E4.65865
G1 X133.693 Y96.254 E4.7419
G1 X133.693 Y96.254 F7800
G1 X124.707 Y99.784
G1 F1800
G1 X125.712 Y99.825 E4.77176
G1 X126.708 Y100.063 E4.80217
G1 X127.617 Y100.479 E4.83185
G1 X128.448 Y101.076 E4.86223
G1 X129.163 Y101.844 E4.89339
G1 X129.688 Y102.695 E4.92308
G1 X130.054 Y103.677 E4.9542
G1 X130.215 Y104.688 E4.9846
G1 X130.175 Y105.712 E5.01503
G1 X129.937 Y106.708 E5.04544
G1 X129.521 Y107.617 E5.07512
G1 X128.924 Y108.448 E5.1055
G1 X128.156 Y109.163 E5.13666
G1 X127.305 Y109.688 E5.16635
G1 X126.323 Y110.054 E5.19747
G1 X125.312 Y110.215 E5.22787
G1 X124.288 Y110.175 E5.2583
G1 X123.292 Y109.937 E5.28871
G1 X122.383 Y109.521 E5.31839
G1 X121.552 Y108.924 E5.34877
G1 X120.837 Y108.156 E5.37993
G1 X120.312 Y107.305 E5.40962
G1 X119.946 Y106.323 E5.44074
G1 X119.785 Y105.312 E5.47114
G1 X119.825 Y104.288 E5.50157
G1 X120.063 Y103.292 E5.53198
G1 X120.479 Y102.383 E5.56166
G1 X121.076 Y101.552 E5.59204
G1 X121.844 Y100.837 E5.6232
G1 X122.695 Y100.312 E5.65289
G1 X123.677 Y99.946 E5.68401
G1 X124.654 Y99.79 E5.71339
G1 E3.71339 F2400
G92 E0
G1 X124.654 Y99.79 F7800
G1 X136.109 Y113.532
G1 E2 F2400
G1 F1800
G1 X136.109 Y96.629 E2.50187
G1 X135.712 Y96.629 E2.51366
G1 X135.712 Y113.371 E3.01075
G1 X135.316 Y113.371 E3.02251
G1 X135.316 Y96.629 E3.5196
G1 X134.919 Y96.629 E3.53139
G1 X134.919 Y113.371 E4.02848
G1 X134.522 Y113.371 E4.04027
G1 X134.522 Y96.629 E4.53736
G1 X134.125 Y96.629 E4.54915
G1 X134.125 Y113.371 E5.04624
G1 X133.729 Y113.371 E5.058
G1 X133.729 Y96.629 E5.55509
G1 X133.371 Y96.629 E5.56572
G1 X133.332 Y93.772 E5.65056
G1 X133.332 Y116.228 E6.31731
G1 X132.935 Y116.228 E6.3291
G1 X132.935 Y93.772 E6.99585
G1 X132.538 Y93.772 E7.00764
G1 X132.538 Y116.228 E7.67439
G1 X132.142 Y116.228 E7.68615
G1 X132.142 Y93.772 E8.3529
G1 X131.745 Y93.772 E8.36469
G1 X131.745 Y116.228 E9.03144
G1 X131.348 Y116.228 E9.04323
G1 X131.348 Y93.772 E9.70998
G1 X130.951 Y93.772 E9.72177
G1 X130.951 Y116.228 E10.38852
G1 X130.555 Y116.228 E10.40028
G1 X130.555 Y93.772 E11.06703
G1 X130.158 Y93.772 E11.07882
G1 X130.158 Y102.972 E11.35198
G1 X129.761 Y102.157 E11.3789
G1 X129.761 Y93.772 E11.62786
G1 X129.364 Y93.772 E11.63965
G1 X129.364 Y101.583 E11.87157
G1 X128.968 Y101.13 E11.88943
G1 X128.968 Y93.772 E12.1079
G1 X128.571 Y93.772 E12.11969
G1 X128.571 Y100.761 E12.3272
G1 X128.174 Y100.456 E12.34206
G1 X128.174 Y93.772 E12.54052
G1 X127.777 Y93.772 E12.55231
G1 X127.777 Y100.2 E12.74317
G1 X127.381 Y99.992 E12.75645
G1 X127.381 Y93.772 E12.94113
G1 X126.984 Y93.772 E12.95292
G1 X126.984 Y99.824 E13.13261
G1 X126.587 Y99.691 E13.14504
G1 X126.587 Y93.772 E13.32078
G1 X126.19 Y93.772 E13.33257
G1 X126.19 Y99.586 E13.5052
G1 X125.794 Y99.512 E13.51716
G1 X125.794 Y93.772 E13.68759
G1 X125.397 Y93.772 E13.69938
G1 X125.397 Y99.471 E13.86859
G1 X125 Y99.458 E13.88038
G1 X125 Y93.772 E14.0492
G1 X124.603 Y93.772 E14.06099
G1 X124.603 Y99.472 E14.23023
G1 X124.206 Y99.512 E14.24208
G1 X124.206 Y93.772 E14.41251
G1 X123.81 Y93.772 E14.42427
G1 X123.81 Y99.587 E14.59692
G1 X123.413 Y99.691 E14.60911
G1 X123.413 Y93.772 E14.78485
G1 X123.016 Y93.772 E14.79664
G1 X123.016 Y99.824 E14.97633
G1 X122.619 Y99.992 E14.98913
G1 X122.619 Y93.772 E15.17381
G1 X122.223 Y93.772 E15.18557
G1 X122.223 Y100.201 E15.37646
G1 X121.826 Y100.456 E15.39047
G1 X121.826 Y93.772 E15.58893
G1 X121.429 Y93.772 E15.60072
G1 X121.429 Y100.762 E15.80826
G1 X121.032 Y101.131 E15.82435
G1 X121.032 Y93.772 E16.04285
G1 X120.636 Y93.772 E16.05461
G1 X120.636 Y101.583 E16.28653
G1 X120.239 Y102.158 E16.30728
G1 X120.239 Y93.772 E16.55627
G1 X119.842 Y93.772 E16.56806
G1 X119.842 Y102.971 E16.84119
G1 X119.6 Y103.738 E16.86507
G1 X119.458 Y104.816 E16.89735
G1 X119.528 Y105.901 E16.92963
G1 X119.842 Y107.028 E16.96437
G1 X119.842 Y116.228 E17.23753
G1 X120.239 Y116.228 E17.24932
G1 X120.239 Y107.843 E17.49828
G1 X120.636 Y108.417 E17.519
G1 X120.636 Y116.228 E17.75092
G1 X121.032 Y116.228 E17.76268
G1 X121.032 Y108.87 E17.98115
G1 X121.429 Y109.239 E17.99724
G1 X121.429 Y116.228 E18.20475
G1 X121.826 Y116.228 E18.21654
G1 X121.826 Y109.544 E18.415
G1 X122.223 Y109.8 E18.42903
G1 X122.223 Y116.228 E18.61989
G1 X122.619 Y116.228 E18.63165
G1 X122.619 Y110.008 E18.81633
G1 X123.016 Y110.176 E18.82913
G1 X123.016 Y116.228 E19.00882
G1 X123.413 Y116.228 E19.02061
G1 X123.413 Y110.309 E19.19635
G1 X123.81 Y110.414 E19.20854
G1 X123.81 Y116.228 E19.38117
G1 X124.206 Y116.228 E19.39293
G1 X124.206 Y110.488 E19.56336
G1 X124.603 Y110.529 E19.57521
G1 X124.603 Y116.228 E19.74442
G1 X125 Y116.228 E19.75621
