; generated by PrusaSlicer 2.7.2 on 2026-04-24 at 23:20:10 UTC

; 

; external perimeters extrusion width = 0.45mm
; perimeters extrusion width = 0.45mm
; infill extrusion width = 0.45mm
; solid infill extrusion width = 0.45mm
; top infill extrusion width = 0.40mm
; support material extrusion width = 0.40mm
; first layer extrusion width = 0.40mm

M190 S60 ; set bed temperature and wait for it to be reached
M104 S205 ; set temperature
;TYPE:Custom
G28
G1 Z5 F5000
M109 S205 ; set temperature and wait for it to be reached
G21 ; set units to millimeters
G90 ; use absolute coordinates
M82 ; use absolute distances for extrusion
G92 E0
; Filament gcode
M107
;LAYER_CHANGE
;Z:0.2
;HEIGHT:0.2
G1 E-2 F2400
G1 Z.2 F7800
G1 X93.108 Y93.108
G1 E0 F2400
;TYPE:Skirt/Brim
;WIDTH:0.4
G1 F1800
G1 X94.59 Y91.627 E.06221
G1 X96.3 Y90.477 E.1234
G1 X98.378 Y90.058 E.18634
G1 X121.625 Y90.058 E.87657
G1 X123.648 Y90.454 E.93778
G1 X125.414 Y91.627 E1.00073
G1 X128.375 Y94.588 E1.12506
G1 X129.525 Y96.298 E1.18625
G1 X129.944 Y98.376 E1.24919
G1 X129.944 Y121.624 E1.93945
G1 X129.548 Y123.646 E2.00063
G1 X128.375 Y125.412 E2.06358
G1 X125.414 Y128.373 E2.18791
G1 X123.704 Y129.523 E2.2491
G1 X121.625 Y129.942 E2.31207
G1 X98.378 Y129.942 E3.0023
G1 X96.356 Y129.546 E3.06348
G1 X94.59 Y128.373 E3.12643
G1 X91.628 Y125.412 E3.25078
G1 X90.479 Y123.702 E3.31195
G1 X90.059 Y121.624 E3.3749
G1 X90.059 Y98.376 E4.06516
G1 X90.456 Y96.354 E4.12634
G1 X91.628 Y94.588 E4.18927
G1 X93.066 Y93.151 E4.24963
G1 E2.24963 F2400
G92 E0
G1 X93.066 Y93.151 F7800
G1 X100.658 Y100.2
G1 E2 F2400
G1 F1800
G1 X101.665 Y99.302 E2.04006
G1 X102.755 Y98.507 E2.08012
G1 X103.918 Y97.823 E2.12018
G1 X105.142 Y97.256 E2.16023
G1 X106.416 Y96.811 E2.2003
G1 X107.728 Y96.494 E2.24038
G1 X109.065 Y96.307 E2.28046
G1 X110.416 Y96.251 E2.32061
G1 X111.759 Y96.328 E2.36055
G1 X113.092 Y96.537 E2.40061
G1 X114.398 Y96.875 E2.44066
G1 X115.665 Y97.34 E2.48073
G1 X116.88 Y97.927 E2.52079
G1 X118.032 Y98.63 E2.56086
G1 X119.109 Y99.442 E2.60091
G1 X120.101 Y100.356 E2.64096
G1 X121 Y101.363 E2.68104
G1 X121.795 Y102.453 E2.7211
G1 X122.479 Y103.616 E2.76116
G1 X123.046 Y104.84 E2.80121
G1 X123.49 Y106.114 E2.84127
G1 X123.808 Y107.426 E2.88135
G1 X123.995 Y108.762 E2.9214
G1 X124.051 Y110.11 E2.96146
G1 X123.974 Y111.457 E3.00152
G1 X123.765 Y112.79 E3.04158
G1 X123.427 Y114.096 E3.08163
G1 X122.962 Y115.363 E3.1217
G1 X122.375 Y116.578 E3.16176
G1 X121.672 Y117.73 E3.20183
G1 X120.86 Y118.807 E3.24188
G1 X119.946 Y119.8 E3.28195
G1 X118.939 Y120.698 E3.32201
G1 X117.849 Y121.493 E3.36207
G1 X116.686 Y122.177 E3.40213
G1 X115.461 Y122.744 E3.44221
G1 X114.187 Y123.189 E3.48228
G1 X112.876 Y123.506 E3.52233
G1 X111.54 Y123.693 E3.56238
G1 X110.192 Y123.749 E3.60244
G1 X108.845 Y123.672 E3.6425
G1 X107.512 Y123.463 E3.68256
G1 X106.205 Y123.125 E3.72264
G1 X104.939 Y122.66 E3.76268
G1 X103.724 Y122.073 E3.80274
G1 X102.572 Y121.37 E3.84281
G1 X101.495 Y120.558 E3.88286
G1 X100.502 Y119.644 E3.92293
G1 X99.604 Y118.637 E3.96299
G1 X98.809 Y117.547 E4.00305
G1 X98.125 Y116.384 E4.04311
G1 X97.558 Y115.16 E4.08316
G1 X97.113 Y113.886 E4.12323
G1 X96.796 Y112.574 E4.16331
G1 X96.609 Y111.238 E4.20336
G1 X96.553 Y109.89 E4.24342
G1 X96.63 Y108.543 E4.28348
G1 X96.839 Y107.21 E4.32354
G1 X97.177 Y105.904 E4.36359
G1 X97.642 Y104.637 E4.40366
G1 X98.228 Y103.422 E4.44371
G1 X98.931 Y102.27 E4.48378
G1 X99.744 Y101.193 E4.52385
G1 X100.617 Y100.244 E4.56214
G1 X100.617 Y100.244 F7800
G1 X100.879 Y100.486
G1 F1800
G1 X100.902 Y100.461 E4.56315
G1 X101.883 Y99.585 E4.6022
G1 X102.944 Y98.81 E4.64121
G1 X104.076 Y98.143 E4.68022
G1 X105.268 Y97.59 E4.71924
G1 X106.509 Y97.156 E4.75828
G1 X107.786 Y96.846 E4.7973
G1 X109.088 Y96.663 E4.83634
G1 X110.404 Y96.608 E4.87545
G1 X111.713 Y96.682 E4.91438
G1 X113.011 Y96.885 E4.95339
G1 X114.284 Y97.214 E4.99243
G1 X115.518 Y97.666 E5.03145
G1 X116.702 Y98.236 E5.07047
G1 X117.824 Y98.92 E5.10949
G1 X118.874 Y99.711 E5.14852
G1 X119.841 Y100.601 E5.18754
G1 X120.716 Y101.581 E5.22655
G1 X121.492 Y102.642 E5.26558
G1 X122.159 Y103.774 E5.30459
G1 X122.712 Y104.967 E5.34363
G1 X123.146 Y106.207 E5.38264
G1 X123.455 Y107.484 E5.42165
G1 X123.639 Y108.786 E5.46069
G1 X123.694 Y110.099 E5.49971
G1 X123.619 Y111.411 E5.53873
G1 X123.417 Y112.71 E5.57776
G1 X123.088 Y113.982 E5.61677
G1 X122.636 Y115.216 E5.65579
G1 X122.066 Y116.4 E5.69481
G1 X121.382 Y117.522 E5.73383
G1 X120.591 Y118.572 E5.77286
G1 X119.701 Y119.539 E5.81188
G1 X118.721 Y120.415 E5.85091
G1 X117.66 Y121.19 E5.88992
G1 X116.527 Y121.857 E5.92896
G1 X115.335 Y122.41 E5.96798
G1 X114.095 Y122.844 E6.00699
G1 X112.817 Y123.154 E6.04604
G1 X111.516 Y123.337 E6.08505
G1 X110.203 Y123.392 E6.12407
G1 X108.891 Y123.318 E6.16309
G1 X107.592 Y123.115 E6.20213
G1 X106.32 Y122.786 E6.24114
G1 X105.086 Y122.334 E6.28016
G1 X103.902 Y121.764 E6.31918
G1 X102.78 Y121.08 E6.3582
G1 X101.73 Y120.289 E6.39723
G1 X100.763 Y119.399 E6.43625
G1 X99.887 Y118.419 E6.47528
G1 X99.112 Y117.358 E6.51429
G1 X98.445 Y116.226 E6.5533
G1 X97.892 Y115.033 E6.59234
G1 X97.458 Y113.793 E6.63135
G1 X97.148 Y112.516 E6.67037
G1 X96.965 Y111.214 E6.70941
G1 X96.91 Y109.901 E6.74843
G1 X96.984 Y108.589 E6.78745
G1 X97.187 Y107.29 E6.82649
G1 X97.515 Y106.018 E6.86549
G1 X97.967 Y104.784 E6.90451
G1 X98.538 Y103.6 E6.94354
G1 X99.222 Y102.478 E6.98256
G1 X100.013 Y101.428 E7.02159
G1 X100.839 Y100.53 E7.05782
G1 X100.839 Y100.53 F7800
G1 X101.101 Y100.771
G1 F1800
G1 X101.147 Y100.721 E7.05984
G1 X102.101 Y99.868 E7.09784
G1 X103.133 Y99.113 E7.13581
G1 X104.235 Y98.463 E7.1738
G1 X105.395 Y97.924 E7.21178
G1 X106.602 Y97.501 E7.24975
G1 X107.845 Y97.199 E7.28773
G1 X109.112 Y97.019 E7.32573
G1 X110.393 Y96.965 E7.3638
G1 X111.667 Y97.037 E7.40169
G1 X112.931 Y97.233 E7.43967
G1 X114.17 Y97.552 E7.47766
G1 X115.371 Y97.991 E7.51563
G1 X116.524 Y98.546 E7.55362
G1 X117.616 Y99.211 E7.59158
G1 X118.639 Y99.98 E7.62958
G1 X119.581 Y100.845 E7.66755
G1 X120.433 Y101.799 E7.70553
G1 X121.189 Y102.831 E7.74351
G1 X121.839 Y103.933 E7.7815
G1 X122.378 Y105.093 E7.81948
G1 X122.801 Y106.3 E7.85745
G1 X123.103 Y107.543 E7.89543
G1 X123.282 Y108.81 E7.93342
G1 X123.337 Y110.088 E7.9714
G1 X123.265 Y111.365 E8.00938
G1 X123.069 Y112.629 E8.04736
G1 X122.75 Y113.868 E8.08535
G1 X122.311 Y115.069 E8.12332
G1 X121.756 Y116.222 E8.16131
G1 X121.091 Y117.315 E8.1993
G1 X120.322 Y118.337 E8.23728
G1 X119.457 Y119.279 E8.27525
G1 X118.503 Y120.132 E8.31325
G1 X117.471 Y120.887 E8.35122
G1 X116.369 Y121.537 E8.38921
G1 X115.209 Y122.076 E8.42719
G1 X114.002 Y122.499 E8.46516
G1 X112.759 Y122.801 E8.50314
G1 X111.492 Y122.981 E8.54114
G1 X110.214 Y123.035 E8.57912
G1 X108.937 Y122.963 E8.6171
G1 X107.673 Y122.767 E8.65508
G1 X106.434 Y122.448 E8.69307
G1 X105.233 Y122.009 E8.73104
G1 X104.08 Y121.454 E8.76903
G1 X102.987 Y120.789 E8.80702
G1 X101.965 Y120.02 E8.845
G1 X101.023 Y119.155 E8.88297
G1 X100.17 Y118.201 E8.92097
G1 X99.415 Y117.169 E8.95894
G1 X98.765 Y116.067 E8.99693
G1 X98.226 Y114.907 E9.03491
G1 X97.803 Y113.7 E9.07288
G1 X97.5 Y112.457 E9.11087
G1 X97.321 Y111.19 E9.14886
G1 X97.267 Y109.912 E9.18684
G1 X97.338 Y108.635 E9.22481
G1 X97.535 Y107.371 E9.26279
G1 X97.854 Y106.132 E9.30078
G1 X98.293 Y104.931 E9.33875
G1 X98.848 Y103.778 E9.37674
G1 X99.513 Y102.685 E9.41473
G1 X100.282 Y101.663 E9.45271
G1 X101.061 Y100.815 E9.4869
G1 X101.061 Y100.815 F7800
G1 X101.323 Y101.056
G1 F1800
G1 X101.392 Y100.981 E9.48993
G1 X102.319 Y100.151 E9.52687
G1 X103.322 Y99.416 E9.56379
G1 X104.393 Y98.783 E9.60073
G1 X105.521 Y98.258 E9.63767
G1 X106.695 Y97.846 E9.67461
G1 X107.904 Y97.551 E9.71156
G1 X109.136 Y97.376 E9.74851
G1 X110.382 Y97.323 E9.78554
G1 X111.621 Y97.391 E9.82238
G1 X112.851 Y97.581 E9.85933
G1 X114.056 Y97.891 E9.89627
G1 X115.224 Y98.317 E9.93318
G1 X116.346 Y98.856 E9.97014
G1 X117.409 Y99.502 E10.00707
G1 X118.404 Y100.249 E10.04401
G1 X119.321 Y101.09 E10.08095
G1 X120.151 Y102.017 E10.11789
G1 X120.886 Y103.021 E10.15483
G1 X121.519 Y104.092 E10.19177
G1 X122.044 Y105.22 E10.22871
G1 X122.456 Y106.394 E10.26565
G1 X122.751 Y107.602 E10.30257
G1 X122.926 Y108.834 E10.33952
G1 X122.979 Y110.077 E10.37646
G1 X122.911 Y111.319 E10.41339
G1 X122.721 Y112.549 E10.45034
G1 X122.411 Y113.754 E10.48728
G1 X121.985 Y114.923 E10.52422
G1 X121.446 Y116.044 E10.56115
G1 X120.8 Y117.107 E10.59808
G1 X120.053 Y118.102 E10.63502
G1 X119.212 Y119.019 E10.67196
G1 X118.285 Y119.849 E10.7089
G1 X117.281 Y120.584 E10.74584
G1 X116.21 Y121.217 E10.78278
G1 X115.082 Y121.742 E10.81972
G1 X113.908 Y122.154 E10.85666
G1 X112.7 Y122.449 E10.89358
G1 X111.468 Y122.624 E10.93053
G1 X110.225 Y122.678 E10.96747
G1 X108.983 Y122.609 E11.0044
G1 X107.753 Y122.419 E11.04135
G1 X106.548 Y122.109 E11.07829
G1 X105.379 Y121.683 E11.11523
G1 X104.258 Y121.144 E11.15216
G1 X103.194 Y120.498 E11.18912
G1 X102.2 Y119.751 E11.22604
G1 X101.283 Y118.91 E11.26298
G1 X100.453 Y117.983 E11.29992
G1 X99.718 Y116.979 E11.33686
G1 X99.085 Y115.908 E11.3738
G1 X98.56 Y114.78 E11.41074
G1 X98.148 Y113.606 E11.44768
G1 X97.853 Y112.398 E11.4846
G1 X97.678 Y111.166 E11.52155
G1 X97.624 Y109.923 E11.55849
G1 X97.693 Y108.681 E11.59542
G1 X97.883 Y107.451 E11.63237
G1 X98.192 Y106.246 E11.66931
G1 X98.619 Y105.077 E11.70626
G1 X99.157 Y103.956 E11.74318
G1 X99.803 Y102.893 E11.78011
G1 X100.551 Y101.898 E11.81707
G1 X101.283 Y101.1 E11.84922
G1 X101.283 Y101.1 F7800
G1 X101.545 Y101.341
G1 F1800
G1 X101.637 Y101.241 E11.85325
G1 X102.537 Y100.434 E11.88914
G1 X103.512 Y99.719 E11.92504
G1 X104.552 Y99.103 E11.96093
G1 X105.648 Y98.592 E11.99683
G1 X106.789 Y98.191 E12.03274
G1 X107.963 Y97.903 E12.06863
G1 X109.161 Y97.732 E12.10456
G1 X110.372 Y97.68 E12.14055
G1 X111.576 Y97.745 E12.17635
G1 X112.771 Y97.929 E12.21225
G1 X113.942 Y98.229 E12.24814
G1 X115.078 Y98.643 E12.28404
G1 X116.168 Y99.165 E12.31992
G1 X117.202 Y99.793 E12.35584
G1 X118.169 Y100.518 E12.39172
G1 X119.061 Y101.335 E12.42763
G1 X119.868 Y102.235 E12.46352
G1 X120.583 Y103.21 E12.49942
G1 X121.199 Y104.251 E12.53533
G1 X121.71 Y105.346 E12.57121
G1 X122.111 Y106.487 E12.60712
G1 X122.399 Y107.661 E12.64301
G1 X122.57 Y108.858 E12.67891
G1 X122.622 Y110.066 E12.71481
G1 X122.557 Y111.274 E12.75073
G1 X122.373 Y112.469 E12.78663
G1 X122.073 Y113.64 E12.82252
G1 X121.659 Y114.776 E12.85842
G1 X121.136 Y115.866 E12.89432
G1 X120.509 Y116.9 E12.93022
G1 X119.784 Y117.867 E12.9661
G1 X118.967 Y118.759 E13.00201
G1 X118.067 Y119.566 E13.0379
G1 X117.092 Y120.281 E13.0738
G1 X116.051 Y120.897 E13.10971
G1 X114.955 Y121.408 E13.14561
G1 X113.815 Y121.809 E13.18149
G1 X112.64 Y122.097 E13.21741
G1 X111.443 Y122.268 E13.25331
G1 X110.235 Y122.321 E13.28921
G1 X109.028 Y122.255 E13.3251
G1 X107.833 Y122.071 E13.361
G1 X106.662 Y121.771 E13.39689
G1 X105.526 Y121.357 E13.43279
G1 X104.435 Y120.835 E13.4687
G1 X103.402 Y120.207 E13.50459
G1 X102.434 Y119.482 E13.5405
G1 X101.543 Y118.665 E13.57639
G1 X100.736 Y117.765 E13.61228
G1 X100.021 Y116.79 E13.64818
G1 X99.405 Y115.749 E13.68409
G1 X98.894 Y114.654 E13.71997
G1 X98.492 Y113.513 E13.75589
G1 X98.205 Y112.339 E13.79177
G1 X98.034 Y111.142 E13.82767
G1 X97.981 Y109.934 E13.86357
G1 X98.047 Y108.726 E13.89949
G1 X98.231 Y107.531 E13.93539
G1 X98.531 Y106.36 E13.97128
G1 X98.944 Y105.224 E14.00717
G1 X99.467 Y104.134 E14.04307
G1 X100.094 Y103.1 E14.07897
G1 X100.82 Y102.133 E14.11487
G1 X101.505 Y101.385 E14.14498
G1 X101.505 Y101.385 F7800
G1 X101.768 Y101.626
G1 F1800
G1 X101.882 Y101.501 E14.15
G1 X102.756 Y100.716 E14.18488
G1 X103.702 Y100.021 E14.21973
G1 X104.712 Y99.423 E14.25458
G1 X105.775 Y98.926 E14.28942
G1 X106.883 Y98.535 E14.32431
G1 X108.023 Y98.255 E14.35916
G1 X109.185 Y98.088 E14.39402
G1 X110.361 Y98.037 E14.42897
G1 X111.53 Y98.099 E14.46373
G1 X112.691 Y98.277 E14.4986
G1 X113.828 Y98.568 E14.53345
G1 X114.932 Y98.969 E14.56832
G1 X115.991 Y99.475 E14.60317
G1 X116.995 Y100.084 E14.63804
G1 X117.935 Y100.788 E14.67291
G1 X118.801 Y101.58 E14.70775
G1 X119.585 Y102.454 E14.74261
G1 X120.28 Y103.4 E14.77746
G1 X120.879 Y104.41 E14.81233
G1 X121.376 Y105.474 E14.8472
G1 X121.767 Y106.581 E14.88206
G1 X122.046 Y107.721 E14.91691
G1 X122.213 Y108.883 E14.95177
G1 X122.265 Y110.056 E14.98663
G1 X122.202 Y111.228 E15.02148
G1 X122.025 Y112.389 E15.05635
G1 X121.734 Y113.527 E15.09123
G1 X121.333 Y114.63 E15.12608
G1 X120.826 Y115.689 E15.16094
G1 X120.218 Y116.693 E15.19579
G1 X119.514 Y117.633 E15.23066
G1 X118.722 Y118.499 E15.2655
G1 X117.848 Y119.284 E15.30038
G1 X116.902 Y119.979 E15.33523
G1 X115.892 Y120.577 E15.37008
G1 X114.828 Y121.074 E15.40495
G1 X113.721 Y121.465 E15.43981
G1 X112.581 Y121.745 E15.47466
G1 X111.419 Y121.911 E15.50951
G1 X110.246 Y121.964 E15.54437
G1 X109.073 Y121.901 E15.57925
G1 X107.913 Y121.723 E15.6141
G1 X106.775 Y121.432 E15.64898
G1 X105.672 Y121.031 E15.68383
G1 X104.613 Y120.525 E15.71868
G1 X103.609 Y119.916 E15.75355
G1 X102.669 Y119.212 E15.78842
G1 X101.803 Y118.42 E15.82326
G1 X101.018 Y117.546 E15.85814
G1 X100.323 Y116.6 E15.89299
G1 X99.724 Y115.59 E15.92786
G1 X99.227 Y114.526 E15.96273
G1 X98.837 Y113.419 E15.99758
G1 X98.557 Y112.279 E16.03243
G1 X98.39 Y111.117 E16.06729
G1 X98.338 Y109.944 E16.10215
G1 X98.401 Y108.772 E16.137
G1 X98.579 Y107.611 E16.17187
G1 X98.87 Y106.473 E16.20675
G1 X99.27 Y105.37 E16.24159
G1 X99.777 Y104.311 E16.27645
G1 X100.386 Y103.307 E16.31132
G1 X101.089 Y102.367 E16.34617
G1 X101.727 Y101.67 E16.37423
G1 X101.727 Y101.67 F7800
G1 X101.99 Y101.91
G1 F1800
G1 X102.127 Y101.76 E16.38026
G1 X102.974 Y100.999 E16.41407
G1 X103.892 Y100.324 E16.4479
G1 X104.871 Y99.742 E16.48172
G1 X105.903 Y99.259 E16.51555
G1 X106.977 Y98.88 E16.54937
G1 X108.083 Y98.607 E16.58319
G1 X109.21 Y98.445 E16.617
G1 X110.351 Y98.394 E16.65091
G1 X111.485 Y98.454 E16.68463
G1 X112.611 Y98.625 E16.71845
G1 X113.715 Y98.907 E16.75228
G1 X114.786 Y99.295 E16.7861
G1 X115.814 Y99.786 E16.81993
G1 X116.788 Y100.375 E16.85373
G1 X117.701 Y101.057 E16.88757
G1 X118.541 Y101.825 E16.92136
G1 X119.303 Y102.672 E16.95519
G1 X119.978 Y103.59 E16.98902
G1 X120.56 Y104.569 E17.02284
G1 X121.042 Y105.601 E17.05666
G1 X121.422 Y106.675 E17.09049
G1 X121.694 Y107.781 E17.12431
G1 X121.857 Y108.908 E17.15812
G1 X121.908 Y110.046 E17.19194
G1 X121.848 Y111.183 E17.22575
G1 X121.676 Y112.309 E17.25957
G1 X121.395 Y113.413 E17.29339
G1 X121.007 Y114.484 E17.32721
G1 X120.516 Y115.512 E17.36104
G1 X119.927 Y116.487 E17.39486
G1 X119.245 Y117.399 E17.42867
G1 X118.476 Y118.24 E17.46251
G1 X117.629 Y119.001 E17.49632
G1 X116.712 Y119.676 E17.53013
G1 X115.733 Y120.258 E17.56395
G1 X114.701 Y120.741 E17.59778
G1 X113.627 Y121.12 E17.6316
G1 X112.521 Y121.393 E17.66542
G1 X111.394 Y121.555 E17.69923
G1 X110.256 Y121.607 E17.73305
G1 X109.118 Y121.546 E17.76689
G1 X107.992 Y121.375 E17.80071
G1 X106.889 Y121.093 E17.83451
G1 X105.818 Y120.705 E17.86833
G1 X104.79 Y120.214 E17.90216
G1 X103.815 Y119.625 E17.93598
G1 X102.903 Y118.943 E17.96979
G1 X102.062 Y118.175 E18.00361
G1 X101.301 Y117.328 E18.03742
G1 X100.626 Y116.41 E18.07125
G1 X100.044 Y115.431 E18.10507
G1 X99.561 Y114.399 E18.1389
G1 X99.182 Y113.325 E18.17272
G1 X98.909 Y112.219 E18.20654
G1 X98.747 Y111.092 E18.24035
G1 X98.695 Y109.954 E18.27417
G1 X98.756 Y108.817 E18.30798
G1 X98.927 Y107.691 E18.3418
G1 X99.208 Y106.587 E18.37562
G1 X99.596 Y105.516 E18.40944
G1 X100.087 Y104.488 E18.44327
G1 X100.677 Y103.513 E18.47711
G1 X101.359 Y102.601 E18.51092
G1 X101.95 Y101.955 E18.53692
G1 X101.95 Y101.955 F7800
G1 X102.213 Y102.195
G1 F1800
G1 X102.373 Y102.02 E18.54396
G1 X103.193 Y101.281 E18.57674
G1 X104.082 Y100.626 E18.60953
G1 X105.031 Y100.062 E18.64231
G1 X106.03 Y99.593 E18.67508
G1 X107.071 Y99.224 E18.70787
G1 X108.143 Y98.96 E18.74065
G1 X109.236 Y98.801 E18.77344
G1 X110.341 Y98.751 E18.80628
G1 X111.441 Y98.808 E18.83898
G1 X112.532 Y98.974 E18.87175
G1 X113.602 Y99.245 E18.90452
G1 X114.64 Y99.621 E18.9373
G1 X115.637 Y100.096 E18.97009
G1 X116.582 Y100.667 E19.00287
G1 X117.466 Y101.327 E19.03563
