; generated by PrusaSlicer 2.7.2 on 2026-04-24 at 23:20:08 UTC

; 

; external perimeters extrusion width = 0.45mm
; perimeters extrusion width = 0.45mm
; infill extrusion width = 0.45mm
; solid infill extrusion width = 0.45mm
; top infill extrusion width = 0.40mm
; support material extrusion width = 0.40mm
; first layer extrusion width = 0.40mm

M190 S60 ; set bed temperature and wait for it to be reached
M104 S215 ; set temperature
;TYPE:Custom
M201 X1000 Y1000 Z200 E5000
M862.3 P"MK3S"
G28
G1 Z5 F5000
M109 S215 ; set temperature and wait for it to be reached
G21 ; set units to millimeters
G90 ; use absolute coordinates
M82 ; use absolute distances for extrusion
G92 E0
; Filament gcode
M107
;LAYER_CHANGE
;Z:0.2
;HEIGHT:0.2
G1 E-2 F2400
G1 Z.2 F7800
G1 X106.628 Y89.588
G1 E0 F2400
;TYPE:Skirt/Brim
;WIDTH:0.4
G1 F1800
G1 X109.59 Y86.627 E.12435
G1 X111.3 Y85.477 E.18554
G1 X113.378 Y85.058 E.24848
G1 X136.625 Y85.058 E.93871
G1 X138.648 Y85.454 E.99992
G1 X140.414 Y86.627 E1.06287
G1 X143.375 Y89.588 E1.1872
G1 X144.525 Y91.298 E1.24839
G1 X144.944 Y93.376 E1.31133
G1 X144.944 Y116.624 E2.00159
G1 X144.548 Y118.646 E2.06277
G1 X143.375 Y120.412 E2.12572
G1 X140.414 Y123.373 E2.25005
G1 X138.704 Y124.523 E2.31124
G1 X136.625 Y124.942 E2.37421
G1 X113.378 Y124.942 E3.06444
G1 X111.356 Y124.546 E3.12562
G1 X109.59 Y123.373 E3.18857
G1 X106.628 Y120.412 E3.31292
G1 X105.479 Y118.702 E3.37409
G1 X105.059 Y116.624 E3.43704
G1 X105.059 Y93.376 E4.1273
G1 X105.456 Y91.354 E4.18848
G1 X106.595 Y89.638 E4.24963
G1 E2.24963 F2400
G92 E0
G1 X106.595 Y89.638 F7800
G1 X114.744 Y96.193
G1 E2 F2400
G1 F1800
G1 X115.658 Y95.2 E2.04007
G1 X116.665 Y94.302 E2.08013
G1 X117.755 Y93.507 E2.12019
G1 X118.918 Y92.823 E2.16025
G1 X120.142 Y92.256 E2.2003
G1 X121.416 Y91.811 E2.24037
G1 X122.728 Y91.494 E2.28045
G1 X124.065 Y91.307 E2.32053
G1 X125.416 Y91.251 E2.36068
G1 X126.759 Y91.328 E2.40062
G1 X128.092 Y91.537 E2.44068
G1 X129.398 Y91.875 E2.48073
G1 X130.665 Y92.34 E2.5208
G1 X131.88 Y92.927 E2.56086
G1 X133.032 Y93.63 E2.60093
G1 X134.109 Y94.442 E2.64098
G1 X135.101 Y95.356 E2.68103
G1 X136 Y96.363 E2.72111
G1 X136.795 Y97.453 E2.76117
G1 X137.479 Y98.616 E2.80123
G1 X138.046 Y99.84 E2.84128
G1 X138.49 Y101.114 E2.88134
G1 X138.808 Y102.426 E2.92142
G1 X138.995 Y103.762 E2.96147
G1 X139.051 Y105.11 E3.00153
G1 X138.974 Y106.457 E3.04159
G1 X138.765 Y107.79 E3.08165
G1 X138.427 Y109.096 E3.1217
G1 X137.962 Y110.363 E3.16177
G1 X137.375 Y111.578 E3.20183
G1 X136.672 Y112.73 E3.2419
G1 X135.86 Y113.807 E3.28195
G1 X134.946 Y114.8 E3.32202
G1 X133.939 Y115.698 E3.36208
G1 X132.849 Y116.493 E3.40214
G1 X131.686 Y117.177 E3.4422
G1 X130.461 Y117.744 E3.48228
G1 X129.187 Y118.189 E3.52235
G1 X127.876 Y118.506 E3.5624
G1 X126.54 Y118.693 E3.60245
G1 X125.192 Y118.749 E3.64251
G1 X123.845 Y118.672 E3.68257
G1 X122.512 Y118.463 E3.72263
G1 X121.205 Y118.125 E3.76271
G1 X119.939 Y117.66 E3.80275
G1 X118.724 Y117.073 E3.84281
G1 X117.572 Y116.37 E3.88288
G1 X116.495 Y115.558 E3.92293
G1 X115.502 Y114.644 E3.963
G1 X114.604 Y113.637 E4.00306
G1 X113.809 Y112.547 E4.04312
G1 X113.125 Y111.384 E4.08318
G1 X112.558 Y110.16 E4.12323
G1 X112.113 Y108.886 E4.1633
G1 X111.796 Y107.574 E4.20338
G1 X111.609 Y106.238 E4.24343
G1 X111.553 Y104.89 E4.28349
G1 X111.63 Y103.543 E4.32355
G1 X111.839 Y102.21 E4.36361
G1 X112.177 Y100.904 E4.40366
G1 X112.642 Y99.637 E4.44373
G1 X113.228 Y98.422 E4.48378
G1 X113.931 Y97.27 E4.52385
G1 X114.708 Y96.241 E4.56213
G1 X114.708 Y96.241 F7800
G1 X114.992 Y96.455
G1 F1800
G1 X115.013 Y96.428 E4.56315
G1 X115.902 Y95.461 E4.60215
G1 X116.883 Y94.585 E4.6412
G1 X117.944 Y93.81 E4.68021
G1 X119.076 Y93.143 E4.71922
G1 X120.268 Y92.59 E4.75824
G1 X121.509 Y92.156 E4.79728
G1 X122.786 Y91.846 E4.8363
G1 X124.088 Y91.663 E4.87534
G1 X125.404 Y91.608 E4.91445
G1 X126.713 Y91.682 E4.95338
G1 X128.011 Y91.885 E4.99239
G1 X129.284 Y92.214 E5.03143
G1 X130.518 Y92.666 E5.07045
G1 X131.702 Y93.236 E5.10947
G1 X132.824 Y93.92 E5.14849
G1 X133.874 Y94.711 E5.18752
G1 X134.841 Y95.601 E5.22654
G1 X135.716 Y96.581 E5.26555
G1 X136.492 Y97.642 E5.30458
G1 X137.159 Y98.774 E5.34359
G1 X137.712 Y99.967 E5.38263
G1 X138.146 Y101.207 E5.42164
G1 X138.455 Y102.484 E5.46065
G1 X138.639 Y103.786 E5.49969
G1 X138.694 Y105.099 E5.53871
G1 X138.619 Y106.411 E5.57773
G1 X138.417 Y107.71 E5.61676
G1 X138.088 Y108.982 E5.65577
G1 X137.636 Y110.216 E5.69479
G1 X137.066 Y111.4 E5.73381
G1 X136.382 Y112.522 E5.77283
G1 X135.591 Y113.572 E5.81186
G1 X134.701 Y114.539 E5.85088
G1 X133.721 Y115.415 E5.88991
G1 X132.66 Y116.19 E5.92892
G1 X131.527 Y116.857 E5.96796
G1 X130.335 Y117.41 E6.00698
G1 X129.095 Y117.844 E6.04599
G1 X127.817 Y118.154 E6.08504
G1 X126.516 Y118.337 E6.12405
G1 X125.203 Y118.392 E6.16307
G1 X123.891 Y118.318 E6.20209
G1 X122.592 Y118.115 E6.24113
G1 X121.32 Y117.786 E6.28014
G1 X120.086 Y117.334 E6.31916
G1 X118.902 Y116.764 E6.35818
G1 X117.78 Y116.08 E6.3972
G1 X116.73 Y115.289 E6.43623
G1 X115.763 Y114.399 E6.47525
G1 X114.887 Y113.419 E6.51428
G1 X114.112 Y112.358 E6.55329
G1 X113.445 Y111.226 E6.5923
G1 X112.892 Y110.033 E6.63134
G1 X112.458 Y108.793 E6.67035
G1 X112.148 Y107.516 E6.70937
G1 X111.965 Y106.214 E6.74841
G1 X111.91 Y104.901 E6.78743
G1 X111.984 Y103.589 E6.82645
G1 X112.187 Y102.29 E6.86549
G1 X112.515 Y101.018 E6.90449
G1 X112.967 Y99.784 E6.94351
G1 X113.538 Y98.6 E6.98254
G1 X114.222 Y97.478 E7.02156
G1 X114.956 Y96.503 E7.0578
G1 X114.956 Y96.503 F7800
G1 X115.241 Y96.717
G1 F1800
G1 X115.282 Y96.663 E7.05981
G1 X116.147 Y95.721 E7.09778
G1 X117.101 Y94.868 E7.13578
G1 X118.133 Y94.113 E7.17375
G1 X119.235 Y93.463 E7.21174
G1 X120.395 Y92.924 E7.24972
G1 X121.602 Y92.501 E7.28769
G1 X122.845 Y92.199 E7.32567
G1 X124.112 Y92.019 E7.36367
G1 X125.393 Y91.965 E7.40174
G1 X126.667 Y92.037 E7.43963
G1 X127.931 Y92.233 E7.47761
G1 X129.17 Y92.552 E7.5156
G1 X130.371 Y92.991 E7.55357
G1 X131.524 Y93.546 E7.59156
G1 X132.616 Y94.211 E7.62952
G1 X133.639 Y94.98 E7.66752
G1 X134.581 Y95.845 E7.70549
G1 X135.433 Y96.799 E7.74347
G1 X136.189 Y97.831 E7.78145
G1 X136.839 Y98.933 E7.81944
G1 X137.378 Y100.093 E7.85742
G1 X137.801 Y101.3 E7.89539
G1 X138.103 Y102.543 E7.93337
G1 X138.282 Y103.81 E7.97136
G1 X138.337 Y105.088 E8.00934
G1 X138.265 Y106.365 E8.04732
G1 X138.069 Y107.629 E8.0853
G1 X137.75 Y108.868 E8.12329
G1 X137.311 Y110.069 E8.16126
G1 X136.756 Y111.222 E8.19925
G1 X136.091 Y112.315 E8.23724
G1 X135.322 Y113.337 E8.27522
G1 X134.457 Y114.279 E8.31319
G1 X133.503 Y115.132 E8.35119
G1 X132.471 Y115.887 E8.38916
G1 X131.369 Y116.537 E8.42715
G1 X130.209 Y117.076 E8.46513
G1 X129.002 Y117.499 E8.5031
G1 X127.759 Y117.801 E8.54108
G1 X126.492 Y117.981 E8.57908
G1 X125.214 Y118.035 E8.61706
G1 X123.937 Y117.963 E8.65504
G1 X122.673 Y117.767 E8.69302
G1 X121.434 Y117.448 E8.73101
G1 X120.233 Y117.009 E8.76898
G1 X119.08 Y116.454 E8.80697
G1 X117.987 Y115.789 E8.84496
G1 X116.965 Y115.02 E8.88294
G1 X116.023 Y114.155 E8.92091
G1 X115.17 Y113.201 E8.95891
G1 X114.415 Y112.169 E8.99688
G1 X113.765 Y111.067 E9.03487
G1 X113.226 Y109.907 E9.07285
G1 X112.803 Y108.7 E9.11082
G1 X112.5 Y107.457 E9.14881
G1 X112.321 Y106.19 E9.1868
G1 X112.267 Y104.912 E9.22478
G1 X112.338 Y103.635 E9.26275
G1 X112.535 Y102.371 E9.30073
G1 X112.854 Y101.132 E9.33872
G1 X113.293 Y99.931 E9.37669
G1 X113.848 Y98.778 E9.41468
G1 X114.513 Y97.685 E9.45267
G1 X115.205 Y96.765 E9.48685
G1 X115.205 Y96.765 F7800
G1 X115.49 Y96.979
G1 F1800
G1 X115.551 Y96.898 E9.48986
G1 X116.392 Y95.981 E9.5268
G1 X117.319 Y95.151 E9.56374
G1 X118.322 Y94.416 E9.60066
G1 X119.393 Y93.783 E9.6376
G1 X120.521 Y93.258 E9.67454
G1 X121.695 Y92.846 E9.71148
G1 X122.904 Y92.551 E9.74843
G1 X124.136 Y92.376 E9.78538
G1 X125.382 Y92.323 E9.82241
G1 X126.621 Y92.391 E9.85925
G1 X127.851 Y92.581 E9.8962
G1 X129.056 Y92.891 E9.93314
G1 X130.224 Y93.317 E9.97005
G1 X131.346 Y93.856 E10.00701
G1 X132.409 Y94.502 E10.04394
G1 X133.404 Y95.249 E10.08088
G1 X134.321 Y96.09 E10.11782
G1 X135.151 Y97.017 E10.15476
G1 X135.886 Y98.021 E10.1917
G1 X136.519 Y99.092 E10.22864
G1 X137.044 Y100.22 E10.26558
G1 X137.456 Y101.394 E10.30252
G1 X137.751 Y102.602 E10.33944
G1 X137.926 Y103.834 E10.37639
G1 X137.979 Y105.077 E10.41333
G1 X137.911 Y106.319 E10.45026
G1 X137.721 Y107.549 E10.48721
G1 X137.411 Y108.754 E10.52415
G1 X136.985 Y109.923 E10.56109
G1 X136.446 Y111.044 E10.59802
G1 X135.8 Y112.107 E10.63495
G1 X135.053 Y113.102 E10.67189
G1 X134.212 Y114.019 E10.70883
G1 X133.285 Y114.849 E10.74577
G1 X132.281 Y115.584 E10.78271
G1 X131.21 Y116.217 E10.81965
G1 X130.082 Y116.742 E10.85659
G1 X128.908 Y117.154 E10.89353
G1 X127.7 Y117.449 E10.93045
G1 X126.468 Y117.624 E10.9674
G1 X125.225 Y117.678 E11.00434
G1 X123.983 Y117.609 E11.04127
G1 X122.753 Y117.419 E11.07822
G1 X121.548 Y117.109 E11.11516
G1 X120.379 Y116.683 E11.1521
G1 X119.258 Y116.144 E11.18903
G1 X118.194 Y115.498 E11.22599
G1 X117.2 Y114.751 E11.26291
G1 X116.283 Y113.91 E11.29985
G1 X115.453 Y112.983 E11.33679
G1 X114.718 Y111.979 E11.37373
G1 X114.085 Y110.908 E11.41067
G1 X113.56 Y109.78 E11.44761
G1 X113.148 Y108.606 E11.48455
G1 X112.853 Y107.398 E11.52147
G1 X112.678 Y106.166 E11.55842
G1 X112.624 Y104.923 E11.59536
G1 X112.693 Y103.681 E11.63229
G1 X112.883 Y102.451 E11.66924
G1 X113.192 Y101.246 E11.70618
G1 X113.619 Y100.077 E11.74313
G1 X114.157 Y98.956 E11.78005
G1 X114.803 Y97.893 E11.81698
G1 X115.454 Y97.027 E11.84915
G1 X115.454 Y97.027 F7800
G1 X115.739 Y97.241
G1 F1800
G1 X115.82 Y97.133 E11.85316
G1 X116.637 Y96.241 E11.88907
G1 X117.537 Y95.434 E11.92496
G1 X118.512 Y94.719 E11.96086
G1 X119.552 Y94.103 E11.99675
G1 X120.648 Y93.592 E12.03265
G1 X121.789 Y93.191 E12.06856
G1 X122.963 Y92.903 E12.10445
G1 X124.161 Y92.732 E12.14038
G1 X125.372 Y92.68 E12.17637
G1 X126.576 Y92.745 E12.21217
G1 X127.771 Y92.929 E12.24807
G1 X128.942 Y93.229 E12.28396
G1 X130.078 Y93.643 E12.31986
G1 X131.168 Y94.165 E12.35574
G1 X132.202 Y94.793 E12.39166
G1 X133.169 Y95.518 E12.42754
G1 X134.061 Y96.335 E12.46345
G1 X134.868 Y97.235 E12.49934
G1 X135.583 Y98.21 E12.53524
G1 X136.199 Y99.251 E12.57115
G1 X136.71 Y100.346 E12.60703
G1 X137.111 Y101.487 E12.64294
G1 X137.399 Y102.661 E12.67883
G1 X137.57 Y103.858 E12.71473
G1 X137.622 Y105.066 E12.75063
G1 X137.557 Y106.274 E12.78655
G1 X137.373 Y107.469 E12.82245
G1 X137.073 Y108.64 E12.85834
G1 X136.659 Y109.776 E12.89424
G1 X136.136 Y110.866 E12.93014
G1 X135.509 Y111.9 E12.96604
G1 X134.784 Y112.867 E13.00192
G1 X133.967 Y113.759 E13.03783
G1 X133.067 Y114.566 E13.07372
G1 X132.092 Y115.281 E13.10962
G1 X131.051 Y115.897 E13.14553
G1 X129.955 Y116.408 E13.18143
G1 X128.815 Y116.809 E13.21731
G1 X127.64 Y117.097 E13.25323
G1 X126.443 Y117.268 E13.28913
G1 X125.235 Y117.321 E13.32503
G1 X124.028 Y117.255 E13.36092
G1 X122.833 Y117.071 E13.39682
G1 X121.662 Y116.771 E13.43271
G1 X120.526 Y116.357 E13.46861
G1 X119.435 Y115.835 E13.50452
G1 X118.402 Y115.207 E13.54041
G1 X117.434 Y114.482 E13.57632
G1 X116.543 Y113.665 E13.61221
G1 X115.736 Y112.765 E13.6481
G1 X115.021 Y111.79 E13.684
G1 X114.405 Y110.749 E13.71991
G1 X113.894 Y109.654 E13.75579
G1 X113.492 Y108.513 E13.79171
G1 X113.205 Y107.339 E13.82759
G1 X113.034 Y106.142 E13.86349
G1 X112.981 Y104.934 E13.89939
G1 X113.047 Y103.726 E13.93531
G1 X113.231 Y102.531 E13.97121
G1 X113.531 Y101.36 E14.0071
G1 X113.944 Y100.224 E14.04299
G1 X114.467 Y99.134 E14.07889
G1 X115.094 Y98.1 E14.11479
G1 X115.703 Y97.289 E14.1449
G1 X115.703 Y97.289 F7800
G1 X115.988 Y97.502
G1 F1800
G1 X116.089 Y97.367 E14.14991
G1 X116.882 Y96.501 E14.18477
G1 X117.756 Y95.716 E14.21965
G1 X118.702 Y95.021 E14.2545
G1 X119.712 Y94.423 E14.28935
G1 X120.775 Y93.926 E14.32419
G1 X121.883 Y93.535 E14.35908
G1 X123.023 Y93.255 E14.39393
G1 X124.185 Y93.088 E14.42879
G1 X125.361 Y93.037 E14.46374
G1 X126.53 Y93.099 E14.4985
G1 X127.691 Y93.277 E14.53337
G1 X128.828 Y93.568 E14.56822
G1 X129.932 Y93.969 E14.60309
G1 X130.991 Y94.475 E14.63794
G1 X131.995 Y95.084 E14.67281
G1 X132.935 Y95.788 E14.70768
G1 X133.801 Y96.58 E14.74252
G1 X134.585 Y97.454 E14.77738
G1 X135.28 Y98.4 E14.81223
G1 X135.879 Y99.41 E14.8471
G1 X136.376 Y100.474 E14.88197
G1 X136.767 Y101.581 E14.91683
G1 X137.046 Y102.721 E14.95168
G1 X137.213 Y103.883 E14.98654
G1 X137.265 Y105.056 E15.0214
G1 X137.202 Y106.228 E15.05625
G1 X137.025 Y107.389 E15.09112
G1 X136.734 Y108.527 E15.126
G1 X136.333 Y109.63 E15.16085
G1 X135.826 Y110.689 E15.19571
G1 X135.218 Y111.693 E15.23056
G1 X134.514 Y112.633 E15.26543
G1 X133.722 Y113.499 E15.30027
G1 X132.848 Y114.284 E15.33515
G1 X131.902 Y114.979 E15.37
G1 X130.892 Y115.577 E15.40485
G1 X129.828 Y116.074 E15.43972
G1 X128.721 Y116.465 E15.47458
G1 X127.581 Y116.745 E15.50943
G1 X126.419 Y116.911 E15.54428
G1 X125.246 Y116.964 E15.57914
G1 X124.073 Y116.901 E15.61402
G1 X122.913 Y116.723 E15.64887
G1 X121.775 Y116.432 E15.68375
G1 X120.672 Y116.031 E15.7186
G1 X119.613 Y115.525 E15.75345
G1 X118.609 Y114.916 E15.78832
G1 X117.669 Y114.212 E15.82319
G1 X116.803 Y113.42 E15.85803
G1 X116.018 Y112.546 E15.89291
G1 X115.323 Y111.6 E15.92776
G1 X114.724 Y110.59 E15.96263
G1 X114.227 Y109.526 E15.9975
G1 X113.837 Y108.419 E16.03235
G1 X113.557 Y107.279 E16.0672
G1 X113.39 Y106.117 E16.10206
G1 X113.338 Y104.944 E16.13692
G1 X113.401 Y103.772 E16.17177
G1 X113.579 Y102.611 E16.20664
G1 X113.87 Y101.473 E16.24152
G1 X114.27 Y100.37 E16.27636
G1 X114.777 Y99.311 E16.31122
G1 X115.386 Y98.307 E16.34609
G1 X115.952 Y97.55 E16.37415
G1 X115.952 Y97.55 F7800
G1 X116.237 Y97.764
G1 F1800
G1 X116.359 Y97.601 E16.3802
G1 X117.127 Y96.76 E16.41402
G1 X117.974 Y95.999 E16.44783
G1 X118.892 Y95.324 E16.48166
G1 X119.871 Y94.742 E16.51548
G1 X120.903 Y94.259 E16.54931
G1 X121.977 Y93.88 E16.58313
G1 X123.083 Y93.607 E16.61695
G1 X124.21 Y93.445 E16.65076
G1 X125.351 Y93.394 E16.68467
G1 X126.485 Y93.454 E16.71839
G1 X127.611 Y93.625 E16.75221
G1 X128.715 Y93.907 E16.78604
G1 X129.786 Y94.295 E16.81986
G1 X130.814 Y94.786 E16.85369
G1 X131.788 Y95.375 E16.88749
G1 X132.701 Y96.057 E16.92133
G1 X133.541 Y96.825 E16.95512
G1 X134.303 Y97.672 E16.98895
G1 X134.978 Y98.59 E17.02278
G1 X135.56 Y99.569 E17.0566
G1 X136.042 Y100.601 E17.09042
G1 X136.422 Y101.675 E17.12425
G1 X136.694 Y102.781 E17.15807
G1 X136.857 Y103.908 E17.19188
G1 X136.908 Y105.046 E17.2257
G1 X136.848 Y106.183 E17.25951
G1 X136.676 Y107.309 E17.29333
G1 X136.395 Y108.413 E17.32715
G1 X136.007 Y109.484 E17.36097
G1 X135.516 Y110.512 E17.3948
G1 X134.927 Y111.487 E17.42862
G1 X134.245 Y112.399 E17.46243
G1 X133.476 Y113.24 E17.49627
G1 X132.629 Y114.001 E17.53008
G1 X131.712 Y114.676 E17.56389
G1 X130.733 Y115.258 E17.59771
G1 X129.701 Y115.741 E17.63154
G1 X128.627 Y116.12 E17.66536
G1 X127.521 Y116.393 E17.69918
G1 X126.394 Y116.555 E17.73299
G1 X125.256 Y116.607 E17.76681
G1 X124.118 Y116.546 E17.80065
G1 X122.992 Y116.375 E17.83447
G1 X121.889 Y116.093 E17.86827
G1 X120.818 Y115.705 E17.90209
G1 X119.79 Y115.214 E17.93592
G1 X118.815 Y114.625 E17.96974
G1 X117.903 Y113.943 E18.00355
G1 X117.062 Y113.175 E18.03737
G1 X116.301 Y112.328 E18.07118
G1 X115.626 Y111.41 E18.10501
G1 X115.044 Y110.431 E18.13883
G1 X114.561 Y109.399 E18.17266
G1 X114.182 Y108.325 E18.20648
G1 X113.909 Y107.219 E18.2403
G1 X113.747 Y106.092 E18.27411
G1 X113.695 Y104.954 E18.30793
G1 X113.756 Y103.817 E18.34174
G1 X113.927 Y102.691 E18.37556
G1 X114.208 Y101.587 E18.40938
G1 X114.596 Y100.516 E18.4432
G1 X115.087 Y99.488 E18.47703
G1 X115.677 Y98.513 E18.51087
G1 X116.201 Y97.812 E18.53686
G1 X116.201 Y97.812 F7800
G1 X116.487 Y98.025
G1 F1800
G1 X116.629 Y97.835 E18.5439
G1 X117.373 Y97.02 E18.57666
G1 X118.193 Y96.281 E18.60944
G1 X119.082 Y95.626 E18.64223
G1 X120.031 Y95.062 E18.67501
G1 X121.03 Y94.593 E18.70778
G1 X122.071 Y94.224 E18.74057
G1 X123.143 Y93.96 E18.77335
G1 X124.236 Y93.801 E18.80614
G1 X125.341 Y93.751 E18.83898
G1 X126.441 Y93.808 E18.87168
G1 X127.532 Y93.974 E18.90445
G1 X128.602 Y94.245 E18.93722
G1 X129.64 Y94.621 E18.97
G1 X130.637 Y95.096 E19.00279
