; generated by PrusaSlicer 2.7.2 on 2026-04-24 at 23:20:06 UTC

; 

; external perimeters extrusion width = 0.45mm
; perimeters extrusion width = 0.45mm
; infill extrusion width = 0.45mm
; solid infill extrusion width = 0.45mm
; top infill extrusion width = 0.40mm
; support material extrusion width = 0.40mm
; first layer extrusion width = 0.40mm

M190 S60 ; set bed temperature and wait for it to be reached
M104 S205 ; set temperature
;TYPE:Custom
G28
G1 Z5 F5000
M109 S205 ; set temperature and wait for it to be reached
G21 ; set units to millimeters
G90 ; use absolute coordinates
M82 ; use absolute distances for extrusion
G92 E0
; Filament gcode
M107
;LAYER_CHANGE
;Z:0.2
;HEIGHT:0.2
G1 E-2 F2400
G1 Z.2 F7800
G1 X95.965 Y95.965
G1 E0 F2400
;TYPE:Skirt/Brim
;WIDTH:0.4
G1 F1800
G1 X97.445 Y94.484 E.06217
G1 X99.155 Y93.334 E.12336
G1 X101.233 Y92.915 E.1863
G1 X118.767 Y92.915 E.70691
G1 X120.789 Y93.311 E.76809
G1 X122.555 Y94.484 E.83104
G1 X125.516 Y97.445 E.95537
G1 X126.666 Y99.155 E1.01656
G1 X127.085 Y101.233 E1.0795
G1 X127.085 Y118.767 E1.60011
G1 X126.689 Y120.789 E1.66129
G1 X125.516 Y122.555 E1.72424
G1 X122.555 Y125.516 E1.84857
G1 X120.845 Y126.666 E1.90976
G1 X118.767 Y127.085 E1.9727
G1 X101.233 Y127.085 E2.49331
G1 X99.211 Y126.689 E2.55449
G1 X97.445 Y125.516 E2.61744
G1 X94.484 Y122.555 E2.74177
G1 X93.334 Y120.845 E2.80296
G1 X92.915 Y118.767 E2.8659
G1 X92.915 Y101.233 E3.38651
G1 X93.311 Y99.211 E3.44769
G1 X94.484 Y97.445 E3.51064
G1 X95.922 Y96.007 E3.57102
G1 E1.57102 F2400
G92 E0
G1 X106.872 Y106.393 F7800
G1 E2 F2400
G1 F1800
G1 X107.637 Y105.852 E2.02782
G1 X108.493 Y105.47 E2.05565
G1 X109.411 Y105.262 E2.0836
G1 X110.35 Y105.239 E2.11149
G1 X111.263 Y105.396 E2.139
G1 X112.136 Y105.73 E2.16675
G1 X112.928 Y106.229 E2.19454
G1 X113.607 Y106.872 E2.22231
G1 X114.148 Y107.636 E2.25011
G1 X114.529 Y108.491 E2.2779
G1 X114.737 Y109.403 E2.30567
G1 X114.762 Y110.339 E2.33347
G1 X114.604 Y111.261 E2.36124
G1 X114.27 Y112.136 E2.38905
G1 X113.771 Y112.928 E2.41684
G1 X113.128 Y113.607 E2.44461
G1 X112.364 Y114.148 E2.47241
G1 X111.509 Y114.529 E2.5002
G1 X110.597 Y114.737 E2.52797
G1 X109.661 Y114.762 E2.55577
G1 X108.738 Y114.604 E2.58357
G1 X107.864 Y114.27 E2.61135
G1 X107.072 Y113.771 E2.63914
G1 X106.393 Y113.128 E2.66691
G1 X105.852 Y112.364 E2.69471
G1 X105.471 Y111.509 E2.7225
G1 X105.263 Y110.597 E2.75027
G1 X105.238 Y109.661 E2.77807
G1 X105.396 Y108.738 E2.80587
G1 X105.73 Y107.864 E2.83365
G1 X106.229 Y107.072 E2.86144
G1 X106.831 Y106.437 E2.88742
G1 X106.831 Y106.437 F7800
G1 X107.089 Y106.679
G1 F1800
G1 X107.095 Y106.673 E2.88767
G1 X107.8 Y106.17 E2.91338
G1 X108.591 Y105.814 E2.93913
G1 X109.44 Y105.619 E2.96499
G1 X110.308 Y105.594 E2.99077
G1 X111.153 Y105.736 E3.01621
G1 X111.962 Y106.043 E3.0419
G1 X112.696 Y106.501 E3.06759
G1 X113.327 Y107.095 E3.09332
G1 X113.83 Y107.799 E3.11901
G1 X114.186 Y108.589 E3.14474
G1 X114.38 Y109.433 E3.17045
G1 X114.407 Y110.298 E3.19615
G1 X114.264 Y111.152 E3.22186
G1 X113.957 Y111.962 E3.24758
G1 X113.499 Y112.696 E3.27327
G1 X112.905 Y113.327 E3.299
G1 X112.201 Y113.83 E3.32469
G1 X111.411 Y114.186 E3.35042
G1 X110.567 Y114.38 E3.37613
G1 X109.702 Y114.407 E3.40183
G1 X108.848 Y114.264 E3.42754
G1 X108.038 Y113.957 E3.45326
G1 X107.304 Y113.499 E3.47895
G1 X106.673 Y112.905 E3.50468
G1 X106.17 Y112.201 E3.53037
G1 X105.814 Y111.411 E3.5561
G1 X105.62 Y110.567 E3.58181
G1 X105.593 Y109.702 E3.60751
G1 X105.736 Y108.848 E3.63322
G1 X106.043 Y108.038 E3.65894
G1 X106.501 Y107.304 E3.68463
G1 X107.048 Y106.723 E3.70832
G1 X107.048 Y106.723 F7800
G1 X107.307 Y106.964
G1 F1800
G1 X107.318 Y106.952 E3.7088
G1 X107.964 Y106.487 E3.73243
G1 X108.69 Y106.157 E3.75611
G1 X109.469 Y105.975 E3.77986
G1 X110.268 Y105.949 E3.8036
G1 X111.045 Y106.077 E3.82698
G1 X111.789 Y106.356 E3.85057
G1 X112.466 Y106.775 E3.87421
G1 X113.048 Y107.318 E3.89784
G1 X113.512 Y107.964 E3.92146
G1 X113.842 Y108.688 E3.94508
G1 X114.024 Y109.463 E3.96872
G1 X114.052 Y110.258 E3.99234
G1 X113.923 Y111.044 E4.01599
G1 X113.644 Y111.789 E4.03961
G1 X113.225 Y112.466 E4.06325
G1 X112.682 Y113.048 E4.08688
G1 X112.036 Y113.512 E4.1105
G1 X111.312 Y113.842 E4.13412
G1 X110.537 Y114.024 E4.15776
G1 X109.742 Y114.052 E4.18138
G1 X108.956 Y113.923 E4.20503
G1 X108.211 Y113.644 E4.22865
G1 X107.534 Y113.225 E4.25229
G1 X106.952 Y112.682 E4.27592
G1 X106.488 Y112.036 E4.29954
G1 X106.158 Y111.312 E4.32316
G1 X105.976 Y110.537 E4.3468
G1 X105.948 Y109.742 E4.37042
G1 X106.077 Y108.956 E4.39407
G1 X106.356 Y108.211 E4.41769
G1 X106.775 Y107.534 E4.44133
G1 X107.266 Y107.008 E4.46269
G1 X107.266 Y107.008 F7800
G1 X107.526 Y107.249
G1 F1800
G1 X107.542 Y107.231 E4.46341
G1 X108.13 Y106.804 E4.48499
G1 X108.791 Y106.5 E4.50659
G1 X109.501 Y106.331 E4.52826
G1 X110.23 Y106.304 E4.54992
G1 X110.938 Y106.418 E4.57121
G1 X111.618 Y106.67 E4.59274
G1 X112.237 Y107.049 E4.61429
G1 X112.769 Y107.542 E4.63583
G1 X113.196 Y108.13 E4.65741
G1 X113.499 Y108.789 E4.67895
G1 X113.668 Y109.495 E4.7005
G1 X113.696 Y110.22 E4.72204
G1 X113.582 Y110.937 E4.7436
G1 X113.33 Y111.618 E4.76516
G1 X112.951 Y112.237 E4.78671
G1 X112.458 Y112.769 E4.80825
G1 X111.87 Y113.196 E4.82983
G1 X111.211 Y113.499 E4.85137
G1 X110.505 Y113.668 E4.87292
G1 X109.78 Y113.696 E4.89446
G1 X109.063 Y113.582 E4.91602
G1 X108.382 Y113.33 E4.93758
G1 X107.763 Y112.951 E4.95913
G1 X107.231 Y112.458 E4.98067
G1 X106.804 Y111.87 E5.00225
G1 X106.501 Y111.211 E5.02379
G1 X106.332 Y110.505 E5.04534
G1 X106.304 Y109.78 E5.06688
G1 X106.418 Y109.063 E5.08844
G1 X106.67 Y108.382 E5.11
G1 X107.049 Y107.763 E5.13155
G1 X107.485 Y107.293 E5.15058
G1 X107.485 Y107.293 F7800
G1 X107.746 Y107.532
G1 F1800
G1 X107.768 Y107.508 E5.15155
G1 X108.297 Y107.12 E5.17103
G1 X108.893 Y106.843 E5.19054
G1 X109.534 Y106.687 E5.21013
G1 X110.193 Y106.66 E5.22971
G1 X110.833 Y106.76 E5.24894
G1 X111.448 Y106.984 E5.26837
G1 X112.009 Y107.325 E5.28786
G1 X112.492 Y107.768 E5.30732
G1 X112.88 Y108.297 E5.3268
G1 X113.157 Y108.892 E5.34629
G1 X113.312 Y109.529 E5.36576
G1 X113.341 Y110.184 E5.38523
G1 X113.24 Y110.832 E5.4047
G1 X113.016 Y111.448 E5.42416
G1 X112.675 Y112.009 E5.44365
G1 X112.232 Y112.492 E5.46311
G1 X111.703 Y112.88 E5.48259
G1 X111.108 Y113.157 E5.50208
G1 X110.471 Y113.312 E5.52155
G1 X109.816 Y113.341 E5.54102
G1 X109.168 Y113.24 E5.56049
G1 X108.552 Y113.016 E5.57995
G1 X107.991 Y112.675 E5.59944
G1 X107.508 Y112.232 E5.6189
G1 X107.12 Y111.703 E5.63838
G1 X106.843 Y111.108 E5.65787
G1 X106.688 Y110.471 E5.67734
G1 X106.659 Y109.816 E5.69681
G1 X106.76 Y109.168 E5.71628
G1 X106.984 Y108.552 E5.73574
G1 X107.325 Y107.991 E5.75523
G1 X107.705 Y107.576 E5.77194
G1 X107.705 Y107.576 F7800
G1 X107.967 Y107.814
G1 F1800
G1 X107.995 Y107.784 E5.77316
G1 X108.466 Y107.435 E5.79057
G1 X108.997 Y107.185 E5.808
G1 X109.569 Y107.043 E5.8255
G1 X110.158 Y107.016 E5.84301
G1 X110.73 Y107.102 E5.86018
G1 X111.28 Y107.3 E5.87754
G1 X111.783 Y107.601 E5.89494
G1 X112.216 Y107.995 E5.91232
G1 X112.565 Y108.466 E5.92973
G1 X112.815 Y108.996 E5.94713
G1 X112.957 Y109.564 E5.96451
G1 X112.985 Y110.15 E5.98193
G1 X112.898 Y110.729 E5.99931
G1 X112.7 Y111.28 E6.01669
G1 X112.399 Y111.783 E6.03409
G1 X112.005 Y112.216 E6.05147
G1 X111.534 Y112.565 E6.06888
G1 X111.004 Y112.815 E6.08628
G1 X110.436 Y112.957 E6.10366
G1 X109.85 Y112.985 E6.12108
G1 X109.271 Y112.898 E6.13846
G1 X108.72 Y112.7 E6.15584
G1 X108.217 Y112.399 E6.17324
G1 X107.784 Y112.005 E6.19062
G1 X107.435 Y111.534 E6.20803
G1 X107.185 Y111.004 E6.22543
G1 X107.043 Y110.436 E6.24281
G1 X107.015 Y109.85 E6.26023
G1 X107.102 Y109.271 E6.27761
G1 X107.3 Y108.72 E6.29499
G1 X107.601 Y108.217 E6.31239
G1 X107.927 Y107.859 E6.32677
G1 X107.927 Y107.859 F7800
G1 X108.191 Y108.095
G1 F1800
G1 X108.224 Y108.058 E6.32824
G1 X108.637 Y107.749 E6.34355
G1 X109.103 Y107.526 E6.35889
G1 X109.606 Y107.398 E6.3743
G1 X110.125 Y107.372 E6.38973
G1 X110.628 Y107.445 E6.40482
G1 X111.114 Y107.616 E6.42012
G1 X111.558 Y107.879 E6.43544
G1 X111.942 Y108.224 E6.45077
G1 X112.251 Y108.637 E6.46608
G1 X112.474 Y109.102 E6.48139
G1 X112.601 Y109.602 E6.49671
G1 X112.629 Y110.117 E6.51202
G1 X112.555 Y110.628 E6.52735
G1 X112.384 Y111.114 E6.54265
G1 X112.121 Y111.558 E6.55797
G1 X111.776 Y111.942 E6.5733
G1 X111.363 Y112.251 E6.58861
G1 X110.898 Y112.474 E6.60392
G1 X110.398 Y112.601 E6.61924
G1 X109.883 Y112.629 E6.63455
G1 X109.372 Y112.555 E6.64988
G1 X108.886 Y112.384 E6.66518
G1 X108.442 Y112.121 E6.6805
G1 X108.058 Y111.776 E6.69583
G1 X107.749 Y111.363 E6.71114
G1 X107.526 Y110.898 E6.72645
G1 X107.399 Y110.398 E6.74177
G1 X107.371 Y109.883 E6.75708
G1 X107.445 Y109.372 E6.77241
G1 X107.616 Y108.886 E6.78771
G1 X107.879 Y108.442 E6.80303
G1 X108.151 Y108.14 E6.8151
G1 X108.151 Y108.14 F7800
G1 X108.441 Y108.351
G1 F1800
G1 X108.455 Y108.331 E6.81582
G1 X109.211 Y107.867 E6.84216
G1 X110.094 Y107.728 E6.8687
G1 X110.95 Y107.934 E6.89484
G1 X111.669 Y108.455 E6.9212
G1 X112.133 Y109.211 E6.94754
G1 X112.273 Y110.087 E6.97388
G1 X112.066 Y110.95 E7.00023
G1 X111.545 Y111.669 E7.02659
G1 X110.789 Y112.133 E7.05293
G1 X109.913 Y112.273 E7.07927
G1 X109.05 Y112.066 E7.10562
G1 X108.331 Y111.545 E7.13198
G1 X107.867 Y110.789 E7.15832
G1 X107.727 Y109.913 E7.18466
G1 X107.934 Y109.05 E7.21101
G1 X108.406 Y108.399 E7.23488
G1 X108.406 Y108.399 F7800
G1 X108.665 Y108.675
G1 F1800
G1 X108.985 Y108.374 E7.24792
G1 X109.687 Y108.109 E7.2702
G1 X110.433 Y108.132 E7.29236
G1 X111.114 Y108.44 E7.31455
G1 X111.626 Y108.985 E7.33675
G1 X111.891 Y109.685 E7.35897
G1 X111.868 Y110.432 E7.38116
G1 X111.56 Y111.114 E7.40338
G1 X111.015 Y111.626 E7.42558
G1 X110.315 Y111.891 E7.4478
G1 X109.568 Y111.868 E7.46999
G1 X108.886 Y111.56 E7.49221
G1 X108.374 Y111.015 E7.51441
G1 X108.109 Y110.315 E7.53663
G1 X108.132 Y109.568 E7.55882
G1 X108.44 Y108.886 E7.58104
G1 X108.621 Y108.716 E7.58841
G1 X108.621 Y108.716 F7800
G1 X108.896 Y108.909
G1 F1800
G1 X108.922 Y108.872 E7.58975
G1 X109.436 Y108.546 E7.60782
G1 X110.041 Y108.441 E7.62605
G1 X110.63 Y108.573 E7.64397
G1 X111.128 Y108.922 E7.66203
G1 X111.454 Y109.436 E7.6801
G1 X111.56 Y110.036 E7.69819
G1 X111.427 Y110.63 E7.71626
G1 X111.078 Y111.128 E7.73432
G1 X110.564 Y111.454 E7.75239
G1 X109.964 Y111.56 E7.77048
G1 X109.37 Y111.427 E7.78855
G1 X108.872 Y111.078 E7.80661
G1 X108.546 Y110.564 E7.82468
G1 X108.44 Y109.964 E7.84277
G1 X108.573 Y109.37 E7.86084
G1 X108.862 Y108.958 E7.87578
G1 X108.862 Y108.958 F7800
G1 X109.114 Y109.217
G1 F1800
G1 X109.345 Y108.992 E7.88535
G1 X109.781 Y108.817 E7.8993
G1 X110.25 Y108.823 E7.91323
G1 X110.681 Y109.008 E7.92716
G1 X111.008 Y109.345 E7.9411
G1 X111.183 Y109.78 E7.95502
G1 X111.177 Y110.25 E7.96898
G1 X110.992 Y110.681 E7.98291
G1 X110.655 Y111.008 E7.99685
G1 X110.22 Y111.183 E8.01077
G1 X109.75 Y111.177 E8.02473
G1 X109.319 Y110.992 E8.03866
G1 X108.992 Y110.655 E8.0526
G1 X108.817 Y110.22 E8.06652
G1 X108.823 Y109.75 E8.08048
G1 X109.008 Y109.319 E8.09441
G1 X109.071 Y109.258 E8.09701
G1 E6.09701 F2400
G92 E0
G1 X109.071 Y109.258 F7800
G1 X118.693 Y101.307
G1 E2 F2400
;TYPE:Support material
G1 F1800
G1 X121.55 Y101.307 E2.08483
G1 X121.55 Y118.693 E2.60104
G1 X118.693 Y118.693 E2.68587
G1 X118.693 Y121.55 E2.7707
G1 X101.307 Y121.55 E3.28691
G1 X101.307 Y118.693 E3.37174
G1 X98.45 Y118.693 E3.45657
G1 X98.45 Y101.307 E3.97278
G1 X101.307 Y101.307 E4.05761
G1 X101.307 Y98.45 E4.14244
G1 X118.693 Y98.45 E4.65865
G1 X118.693 Y101.254 E4.7419
G1 X118.693 Y101.254 F7800
G1 X109.707 Y104.784
G1 F1800
G1 X110.712 Y104.825 E4.77176
G1 X111.708 Y105.063 E4.80217
G1 X112.617 Y105.479 E4.83185
G1 X113.448 Y106.076 E4.86223
G1 X114.163 Y106.844 E4.89339
G1 X114.688 Y107.695 E4.92308
G1 X115.054 Y108.677 E4.9542
G1 X115.215 Y109.688 E4.9846
G1 X115.175 Y110.712 E5.01503
G1 X114.937 Y111.708 E5.04544
G1 X114.521 Y112.617 E5.07512
G1 X113.924 Y113.448 E5.1055
G1 X113.156 Y114.163 E5.13666
G1 X112.305 Y114.688 E5.16635
G1 X111.323 Y115.054 E5.19747
G1 X110.312 Y115.215 E5.22787
G1 X109.288 Y115.175 E5.2583
G1 X108.292 Y114.937 E5.28871
G1 X107.383 Y114.521 E5.31839
G1 X106.552 Y113.924 E5.34877
G1 X105.837 Y113.156 E5.37993
G1 X105.312 Y112.305 E5.40962
G1 X104.946 Y111.323 E5.44074
G1 X104.785 Y110.312 E5.47114
G1 X104.825 Y109.288 E5.50157
G1 X105.063 Y108.292 E5.53198
G1 X105.479 Y107.383 E5.56166
G1 X106.076 Y106.552 E5.59204
G1 X106.844 Y105.837 E5.6232
G1 X107.695 Y105.312 E5.65289
G1 X108.677 Y104.946 E5.68401
G1 X109.654 Y104.79 E5.71339
G1 E3.71339 F2400
G92 E0
G1 X109.654 Y104.79 F7800
G1 X121.109 Y118.532
G1 E2 F2400
G1 F1800
G1 X121.109 Y101.629 E2.50187
G1 X120.712 Y101.629 E2.51366
G1 X120.712 Y118.371 E3.01075
G1 X120.316 Y118.371 E3.02251
G1 X120.316 Y101.629 E3.5196
G1 X119.919 Y101.629 E3.53139
G1 X119.919 Y118.371 E4.02848
G1 X119.522 Y118.371 E4.04027
G1 X119.522 Y101.629 E4.53736
G1 X119.125 Y101.629 E4.54915
G1 X119.125 Y118.371 E5.04624
G1 X118.729 Y118.371 E5.058
G1 X118.729 Y101.629 E5.55509
G1 X118.371 Y101.629 E5.56572
G1 X118.332 Y98.772 E5.65056
G1 X118.332 Y121.228 E6.31731
G1 X117.935 Y121.228 E6.3291
G1 X117.935 Y98.772 E6.99585
G1 X117.538 Y98.772 E7.00764
G1 X117.538 Y121.228 E7.67439
G1 X117.142 Y121.228 E7.68615
G1 X117.142 Y98.772 E8.3529
G1 X116.745 Y98.772 E8.36469
G1 X116.745 Y121.228 E9.03144
G1 X116.348 Y121.228 E9.04323
G1 X116.348 Y98.772 E9.70998
G1 X115.951 Y98.772 E9.72177
G1 X115.951 Y121.228 E10.38852
G1 X115.555 Y121.228 E10.40028
G1 X115.555 Y98.772 E11.06703
G1 X115.158 Y98.772 E11.07882
G1 X115.158 Y107.972 E11.35198
G1 X114.761 Y107.157 E11.3789
G1 X114.761 Y98.772 E11.62786
G1 X114.364 Y98.772 E11.63965
G1 X114.364 Y106.583 E11.87157
G1 X113.968 Y106.13 E11.88943
G1 X113.968 Y98.772 E12.1079
G1 X113.571 Y98.772 E12.11969
G1 X113.571 Y105.761 E12.3272
G1 X113.174 Y105.456 E12.34206
G1 X113.174 Y98.772 E12.54052
G1 X112.777 Y98.772 E12.55231
G1 X112.777 Y105.2 E12.74317
G1 X112.381 Y104.992 E12.75645
G1 X112.381 Y98.772 E12.94113
G1 X111.984 Y98.772 E12.95292
G1 X111.984 Y104.824 E13.13261
G1 X111.587 Y104.691 E13.14504
G1 X111.587 Y98.772 E13.32078
G1 X111.19 Y98.772 E13.33257
G1 X111.19 Y104.586 E13.5052
G1 X110.794 Y104.512 E13.51716
G1 X110.794 Y98.772 E13.68759
G1 X110.397 Y98.772 E13.69938
G1 X110.397 Y104.471 E13.86859
G1 X110 Y104.458 E13.88038
G1 X110 Y98.772 E14.0492
G1 X109.603 Y98.772 E14.06099
G1 X109.603 Y104.472 E14.23023
G1 X109.206 Y104.512 E14.24208
G1 X109.206 Y98.772 E14.41251
G1 X108.81 Y98.772 E14.42427
G1 X108.81 Y104.587 E14.59692
G1 X108.413 Y104.691 E14.60911
G1 X108.413 Y98.772 E14.78485
G1 X108.016 Y98.772 E14.79664
G1 X108.016 Y104.824 E14.97633
G1 X107.619 Y104.992 E14.98913
G1 X107.619 Y98.772 E15.17381
G1 X107.223 Y98.772 E15.18557
G1 X107.223 Y105.201 E15.37646
G1 X106.826 Y105.456 E15.39047
G1 X106.826 Y98.772 E15.58893
G1 X106.429 Y98.772 E15.60072
G1 X106.429 Y105.762 E15.80826
G1 X106.032 Y106.131 E15.82435
G1 X106.032 Y98.772 E16.04285
G1 X105.636 Y98.772 E16.05461
G1 X105.636 Y106.583 E16.28653
G1 X105.239 Y107.158 E16.30728
G1 X105.239 Y98.772 E16.55627
G1 X104.842 Y98.772 E16.56806
G1 X104.842 Y107.971 E16.84119
G1 X104.6 Y108.738 E16.86507
G1 X104.458 Y109.816 E16.89735
G1 X104.528 Y110.901 E16.92963
G1 X104.842 Y112.028 E16.96437
G1 X104.842 Y121.228 E17.23753
G1 X105.239 Y121.228 E17.24932
G1 X105.239 Y112.843 E17.49828
G1 X105.636 Y113.417 E17.519
G1 X105.636 Y121.228 E17.75092
G1 X106.032 Y121.228 E17.76268
G1 X106.032 Y113.87 E17.98115
G1 X106.429 Y114.239 E17.99724
G1 X106.429 Y121.228 E18.20475
G1 X106.826 Y121.228 E18.21654
G1 X106.826 Y114.544 E18.415
G1 X107.223 Y114.8 E18.42903
G1 X107.223 Y121.228 E18.61989
G1 X107.619 Y121.228 E18.63165
G1 X107.619 Y115.008 E18.81633
G1 X108.016 Y115.176 E18.82913
G1 X108.016 Y121.228 E19.00882
G1 X108.413 Y121.228 E19.02061
G1 X108.413 Y115.309 E19.19635
G1 X108.81 Y115.414 E19.20854
G1 X108.81 Y121.228 E19.38117
G1 X109.206 Y121.228 E19.39293
G1 X109.206 Y115.488 E19.56336
G1 X109.603 Y115.529 E19.57521
G1 X109.603 Y121.228 E19.74442
G1 X110 Y121.228 E19.75621
G1 X110 Y115.542 E19.92503
